hxxd01/asap_sim2real/policy/atom/motor_20251120191132.csv
joint_pos_0,joint_pos_1,joint_pos_2,joint_pos_3,joint_pos_4,joint_pos_5,joint_pos_6,joint_pos_7,joint_pos_8,joint_pos_9,joint_pos_10,joint_pos_11,joint_pos_12,joint_pos_13,joint_pos_14,joint_pos_15,joint_pos_16,joint_pos_17,joint_pos_18,joint_pos_19,joint_pos_20,joint_pos_21,joint_pos_22,joint_pos_23,joint_pos_24,joint_pos_25,joint_pos_26,joint_vel_0,joint_vel_1,joint_vel_2,joint_vel_3,joint_vel_4,joint_vel_5,joint_vel_6,joint_vel_7,joint_vel_8,joint_vel_9,joint_vel_10,joint_vel_11,joint_vel_12,joint_vel_13,joint_vel_14,joint_vel_15,joint_vel_16,joint_vel_17,joint_vel_18,joint_vel_19,joint_vel_20,joint_vel_21,joint_vel_22,joint_vel_23,joint_vel_24,joint_vel_25,joint_vel_26,tau_est_0,tau_est_1,tau_est_2,tau_est_3,tau_est_4,tau_est_5,tau_est_6,tau_est_7,tau_est_8,tau_est_9,tau_est_10,tau_est_11,tau_est_12,tau_est_13,tau_est_14,tau_est_15,tau_est_16,tau_est_17,tau_est_18,tau_est_19,tau_est_20,tau_est_21,tau_est_22,tau_est_23,tau_est_24,tau_est_25,tau_est_26,cmd_q_0,cmd_q_1,cmd_q_2,cmd_q_3,cmd_q_4,cmd_q_5,cmd_q_6,cmd_q_7,cmd_q_8,cmd_q_9,cmd_q_10,cmd_q_11,cmd_q_12,cmd_q_13,cmd_q_14,cmd_q_15,cmd_q_16,cmd_q_17,cmd_q_18,cmd_q_19,cmd_q_20,cmd_q_21,cmd_q_22,cmd_q_23,cmd_q_24,cmd_q_25,cmd_q_26,cmd_tau_0,cmd_tau_1,cmd_tau_2,cmd_tau_3,cmd_tau_4,cmd_tau_5,cmd_tau_6,cmd_tau_7,cmd_tau_8,cmd_tau_9,cmd_tau_10,cmd_tau_11,cmd_tau_12,cmd_tau_13,cmd_tau_14,cmd_tau_15,cmd_tau_16,cmd_tau_17,cmd_tau_18,cmd_tau_19,cmd_tau_20,cmd_tau_21,cmd_tau_22,cmd_tau_23,cmd_tau_24,cmd_tau_25,cmd_tau_26,motion_phase,
0.0024488,0.00881612,0.000688314,0.000975306,-0.00663411,0.00233371,0.00166082,-0.00457418,-0.00148439,-3.36122e-05,-0.00253831,0.00247911,-0.00513268,0.0604351,0.00801373,-0.0168409,0.0672381,-0.0146861,-0.00257444,0.00894606,0.0633051,-0.0102513,0.00824761,0.0749254,0.0164516,0.00681949,-0.0194445,0,0,0,0,0,0,0,0,0,0,-0.00606669,0.213893,0,0.00293,0,0,-0.00879,-0.01172,0,0,0,0,0,0,-0.01172,0,0,-1.25,-2.27,-0.22,-0.07,0.4396,-0.356342,-0.51,1.54,0.22,-0.22,0.00438325,-0.113785,1.98,-4.91,-0.66,1.39,-4.03,0.81,0.22,-0.66,-5.05,0.81,-0.66,-4.47,-0.95,-0.51,1.54,0,0,0,0,0,0,0,0,0,0,0,0,0,0,0,0,0,0,0,0,0,0,0,0,0,0,0,0,0,0,0,0,0,0,0,0,0,0,0,0,0,0,0,0,0,0,0,0,0,0,0,0,0,0,0,
0.00244331,0.00881612,0.000688314,0.000975306,-0.00663411,0.00233371,0.001647,-0.00457418,-0.00148439,-3.36122e-05,-0.00253579,0.00288296,-0.00513411,0.0604351,0.00801373,-0.0168414,0.0672381,-0.0146852,-0.00257444,0.00894606,0.0633051,-0.0102513,0.00824761,0.0749264,0.0164526,0.00681949,-0.0194445,-0.0133182,0,0,0,0,0,0,0,0,0,1.66469e-05,0.1578,0,0,0,-0.00293,-0.00293,-0.00293,-0.00879,0.00293,0.00293,-0.00293,-0.00293,-0.00293,0,0,0.00293,-1.68,-2.56,0.07,-0.22,0.425735,-0.121189,-0.66,1.25,0.37,-0.22,0.243381,-0.479542,1.83,-4.76,-0.66,1.39,-4.03,0.81,0.22,-0.66,-5.05,0.81,-0.66,-4.47,-0.95,-0.51,1.54,-0.088087,-0.151572,-0.113907,-0.694381,0.361454,0.0290832,-0.0892513,0.0896631,-0.544196,-0.584265,-0.163128,0.0708833,0.0159963,0.172917,-0.027526,-0.0458836,0.0390612,0.0140062,0.0285986,-0.000884854,0.193682,0.171553,0.152814,-0.0938646,0.021805,-0.0362926,-0.0126452,-38.9521,-44.7179,-16.6037,-223.07,22.3209,1.62209,-39.114,26.2743,-78.6335,-187.422,-9.71475,3.3224,6.76128,8.9927,-2.84318,-2.32341,-1.68622,1.7274,2.49384,-0.786473,10.4301,14.5444,11.5653,-10.1274,0.327065,-3.44897,0.543945,0.00416667,
0.00244045,0.00881612,0.000688314,0.000975306,-0.00663411,0.00233371,0.00163293,-0.00457418,-0.00148439,-3.36122e-05,-0.00253187,0.00316218,-0.00513268,0.0604351,0.00801373,-0.0168414,0.067239,-0.0146852,-0.00257492,0.00894606,0.0633051,-0.0102513,0.00824761,0.0749264,0.0164545,0.00681949,-0.0194445,0,0,0,0,0,0,0,0,0,0,0.00613056,0.101666,0,0.00293,0,-0.00293,0.00293,-0.00293,0,0,-0.00293,0,0.00293,-0.00879,-0.00293,0,0.00293,-1.39,-2.27,0.07,0.07,0.2196,-0.234936,-0.51,1.25,0.22,-0.07,0.237306,-0.715223,1.98,-4.91,-0.66,1.39,-4.03,0.95,0.22,-0.66,-5.05,0.81,-0.66,-4.47,-0.95,-0.51,1.54,-0.088087,-0.151572,-0.113907,-0.694381,0.361454,0.0290832,-0.0892513,0.0896631,-0.544196,-0.584265,-0.163128,0.0708833,0.0159963,0.172917,-0.027526,-0.0458836,0.0390612,0.0140062,0.0285986,-0.000884854,0.193682,0.171553,0.152814,-0.0938646,0.021805,-0.0362926,-0.0126452,-38.9521,-44.7179,-16.6037,-223.07,22.3209,1.62209,-39.114,26.2743,-78.6335,-187.422,-9.71475,3.3224,6.76128,8.9927,-2.84318,-2.32341,-1.68622,1.7274,2.49384,-0.786473,10.4301,14.5444,11.5653,-10.1274,0.327065,-3.44897,0.543945,0.00416667,
0.00243497,0.00881612,0.000688314,0.000975306,-0.00663411,0.00233371,0.00162196,-0.00457418,-0.00148439,-3.36122e-05,-0.00251905,0.00324695,-0.00513268,0.0604351,0.00801373,-0.0168414,0.0672374,-0.0146861,-0.00257444,0.00894606,0.0633051,-0.0102496,0.00824642,0.0749264,0.016453,0.00681949,-0.0194445,0,0,0,0,0,0,0,0,0,0,0,0,0,0,-0.00293,0.00293,0.00293,0.01466,0,-0.00293,-0.00293,0.00293,0.00293,0,-0.00879,-0.00293,-0.00293,-1.39,-2.27,-0.07,0.07,0.645736,-0.242595,-0.51,1.25,0.51,-0.22,0.261258,-0.950921,2.27,-4.76,-0.66,1.39,-4.03,0.81,0.22,-0.66,-5.05,0.81,-0.66,-4.47,-0.95,-0.51,1.54,-0.088087,-0.151572,-0.113907,-0.694381,0.361454,0.0290832,-0.0892513,0.0896631,-0.544196,-0.584265,-0.163128,0.0708833,0.0159963,0.172917,-0.027526,-0.0458836,0.0390612,0.0140062,0.0285986,-0.000884854,0.193682,0.171553,0.152814,-0.0938646,0.021805,-0.0362926,-0.0126452,-38.9521,-44.7179,-16.6037,-223.07,22.3209,1.62209,-39.114,26.2743,-78.6335,-187.422,-9.71475,3.3224,6.76128,8.9927,-2.84318,-2.32341,-1.68622,1.7274,2.49384,-0.786473,10.4301,14.5444,11.5653,-10.1274,0.327065,-3.44897,0.543945,0.00416667,
0.00243497,0.00881612,0.000688314,0.000975306,-0.00663411,0.00233371,0.00160813,-0.00457418,-0.00148439,-3.36122e-05,-0.00250478,0.00313196,-0.00513268,0.0604351,0.00801373,-0.0168414,0.0672381,-0.0146866,-0.00257444,0.00894511,0.0633051,-0.0102513,0.00824761,0.0749264,0.0164516,0.00681949,-0.0194445,0,0,0,0,0,0,0,0,0,0,-0.00613114,-0.101664,0,0.00293,0,0,0.00293,0.00293,0.00879,0,0,-0.00293,0,-0.00293,0.01172,0,-0.00293,-1.39,-2.27,0.07,-0.22,0.645736,-0.242595,-0.51,1.54,0.07,-0.22,0.261311,-0.950935,1.54,-4.76,-0.66,1.39,-4.18,0.81,0.22,-0.81,-5.05,0.81,-0.66,-4.47,-0.95,-0.51,1.54,-0.088087,-0.151572,-0.113907,-0.694381,0.361454,0.0290832,-0.0892513,0.0896631,-0.544196,-0.584265,-0.163128,0.0708833,0.0159963,0.172917,-0.027526,-0.0458836,0.0390612,0.0140062,0.0285986,-0.000884854,0.193682,0.171553,0.152814,-0.0938646,0.021805,-0.0362926,-0.0126452,-38.9521,-44.7179,-16.6037,-223.07,22.3209,1.62209,-39.114,26.2743,-78.6335,-187.422,-9.71475,3.3224,6.76128,8.9927,-2.84318,-2.32341,-1.68622,1.7274,2.49384,-0.786473,10.4301,14.5444,11.5653,-10.1274,0.327065,-3.44897,0.543945,0.00416667,
0.00206876,0.00797832,0.000244141,-0.00220102,-0.00663411,0.00233371,0.00125027,-0.00410819,-0.00446391,-0.00346035,-0.00249179,0.00282217,-0.00513101,0.0604432,0.00801206,-0.0168447,0.0672414,-0.0146818,-0.00256741,0.00894606,0.0633123,-0.0102303,0.00826526,0.0749171,0.0164557,0.00680602,-0.0194478,-0.453,-0.746091,-0.559591,-3.03282,0,0,-0.466318,0.439682,-3.10432,-2.961,0.00608429,-0.168827,0,0.01172,-0.01172,-0.00293,0.00293,0.00293,0.01466,-0.00879,0.01466,0.0381,0.04104,-0.01172,0.00293,-0.02638,-0.00293,-27.47,-32.31,-11.79,-52.38,0.2196,-0.234936,-26.89,19.27,-34.95,-124.62,0.0317788,-0.82902,7.55,6.67,-2.71,-1.39,-1.68,1.54,1.83,-0.81,7.99,14.43,10.92,-10.18,-0.07,-2.86,0.81,-0.088087,-0.151572,-0.113907,-0.694381,0.361454,0.0290832,-0.0892513,0.0896631,-0.544196,-0.584265,-0.163128,0.0708833,0.0159963,0.172917,-0.027526,-0.0458836,0.0390612,0.0140062,0.0285986,-0.000884854,0.193682,0.171553,0.152814,-0.0938646,0.021805,-0.0362926,-0.0126452,-38.9521,-44.7179,-16.6037,-223.07,22.3209,1.62209,-39.114,26.2743,-78.6335,-187.422,-9.71475,3.3224,6.76128,8.9927,-2.84318,-2.32341,-1.68622,1.7274,2.49384,-0.786473,10.4301,14.5444,11.5653,-10.1274,0.327065,-3.44897,0.543945,0.00416667,
0.00135851,0.00688255,-0.000540972,-0.00685335,-0.00652244,0.00236154,0.000470638,-0.00344777,-0.00878096,-0.00794082,-0.00252347,0.00265881,-0.00506592,0.0605443,0.00797367,-0.016892,0.0672872,-0.0146487,-0.00247264,0.00894511,0.0634308,-0.00994587,0.00849986,0.0748148,0.0164893,0.00667417,-0.0194509,-0.6795,-1.19909,-0.719455,-4.52229,0.224297,0.0895277,-0.732773,0.6395,-4.02364,-4.3249,-0.0488656,-0.0920421,0.0609091,0.06155,-0.02345,-0.02638,0.02638,0.02638,0.06155,0,0.07914,0.17294,0.14656,-0.05862,0.02052,-0.07328,0,-20.59,-27.03,-9.45,-144.25,20.8862,1.21431,-19.56,15.6,-46.96,-97.95,-8.46992,2.984,5.49,8.57,-2.86,-2.12,-1.83,1.54,1.98,-0.81,9.89,13.99,11.06,-10.04,-0.07,-3,0.81,-0.088087,-0.151572,-0.113907,-0.694381,0.361454,0.0290832,-0.0892513,0.0896631,-0.544196,-0.584265,-0.163128,0.0708833,0.0159963,0.172917,-0.027526,-0.0458836,0.0390612,0.0140062,0.0285986,-0.000884854,0.193682,0.171553,0.152814,-0.0938646,0.021805,-0.0362926,-0.0126452,-38.9521,-44.7179,-16.6037,-223.07,22.3209,1.62209,-39.114,26.2743,-78.6335,-187.422,-9.71475,3.3224,6.76128,8.9927,-2.84318,-2.32341,-1.68622,1.7274,2.49384,-0.786473,10.4301,14.5444,11.5653,-10.1274,0.327065,-3.44897,0.543945,0.00416667,
-0.000561476,0.0041858,-0.00260496,-0.0207694,-0.00517323,0.0027469,-0.0015769,-0.00185549,-0.0197532,-0.0208367,-0.00298776,0.00292538,-0.00485492,0.060766,0.00789499,-0.0169966,0.0673645,-0.0145743,-0.00224721,0.00894463,0.0636921,-0.00937247,0.00896358,0.0746276,0.0165215,0.00643134,-0.0194509,-0.852682,-1.11914,-0.919318,-6.2092,0.847534,0.19997,-0.852682,0.599545,-4.88964,-6.02976,-0.305257,0.281393,0.0761299,0.10845,-0.0381,-0.04983,0.02931,0.02345,0.12018,-0.00293,0.1319,0.27552,0.23742,-0.08793,0.01466,-0.11431,0,-14.73,-23.52,-7.55,-88.86,21.7533,1.45316,-14.29,14.43,-32.45,-59.41,-9.16214,3.81154,4.18,8.72,-2.86,-2.12,-1.68,1.54,2.12,-0.66,10.04,13.85,10.92,-10.04,0.07,-3.15,0.81,-0.088087,-0.151572,-0.113907,-0.694381,0.361454,0.0290832,-0.0892513,0.0896631,-0.544196,-0.584265,-0.163128,0.0708833,0.0159963,0.172917,-0.027526,-0.0458836,0.0390612,0.0140062,0.0285986,-0.000884854,0.193682,0.171553,0.152814,-0.0938646,0.021805,-0.0362926,-0.0126452,-38.9521,-44.7179,-16.6037,-223.07,22.3209,1.62209,-39.114,26.2743,-78.6335,-187.422,-9.71475,3.3224,6.76128,8.9927,-2.84318,-2.32341,-1.68622,1.7274,2.49384,-0.786473,10.4301,14.5444,11.5653,-10.1274,0.327065,-3.44897,0.543945,0.00416667,
-0.00262809,0.00167239,-0.00519609,-0.0319687,-0.00229157,0.00346582,-0.00377417,-0.000748515,-0.0320659,-0.0365912,-0.00399758,0.00402378,-0.00472522,0.0610876,0.00777817,-0.0171409,0.0674531,-0.0144565,-0.00191939,0.00894463,0.0640733,-0.00859451,0.00965643,0.0743573,0.0165465,0.00611949,-0.0194515,-0.839364,-1.02591,-1.14582,-2.78155,1.50186,0.410726,-0.786091,0.346409,-5.36927,-6.74755,-0.494564,0.601647,0.0228312,0.14656,-0.05276,-0.06448,0.02931,0.06155,0.15828,0,0.18173,0.36346,0.32535,-0.1319,-0.00293,-0.13776,-0.00293,-13.85,-23.81,-5.05,-153.33,21.7519,1.45869,-13.55,19.27,-24.69,-38.46,-9.61539,4.28642,5.35,8.72,-2.71,-2.12,-1.68,1.54,2.12,-0.81,9.74,13.55,10.77,-10.04,0.07,-3.15,0.66,-0.088087,-0.151572,-0.113907,-0.694381,0.361454,0.0290832,-0.0892513,0.0896631,-0.544196,-0.584265,-0.163128,0.0708833,0.0159963,0.172917,-0.027526,-0.0458836,0.0390612,0.0140062,0.0285986,-0.000884854,0.193682,0.171553,0.152814,-0.0938646,0.021805,-0.0362926,-0.0126452,-38.9521,-44.7179,-16.6037,-223.07,22.3209,1.62209,-39.114,26.2743,-78.6335,-187.422,-9.71475,3.3224,6.76128,8.9927,-2.84318,-2.32341,-1.68622,1.7274,2.49384,-0.786473,10.4301,14.5444,11.5653,-10.1274,0.327065,-3.44897,0.543945,0.00416667,
-0.00455093,-0.000941157,-0.00825906,-0.0335457,0.00220916,0.00483511,-0.00540543,-4.92334e-05,-0.0456405,-0.0490274,-0.00534272,0.00597446,-0.00475049,0.06148,0.00765848,-0.0173235,0.0675187,-0.0143023,-0.00152278,0.00894511,0.0645952,-0.00765371,0.0105047,0.0739865,0.0165606,0.00573242,-0.0194515,-0.719455,-1.06586,-1.47886,0.735796,2.19974,0.697259,-0.506273,0.279773,-5.79564,-3.2302,-0.586341,0.881316,-0.0685195,0.17587,-0.04104,-0.08793,0.02052,0.06448,0.16121,0,0.23742,0.40156,0.38105,-0.18173,0.00879,-0.19638,-0.00293,-15.16,-21.17,-1.98,-207.55,21.5296,1.34599,-21.61,20.59,-19.71,-100.88,-9.40845,4.39329,9.01,8.42,-2.71,-2.12,-1.68,1.68,2.27,-0.81,9.74,13.85,10.62,-10.04,0.22,-3.15,0.66,-0.088087,-0.151572,-0.113907,-0.694381,0.361454,0.0290832,-0.0892513,0.0896631,-0.544196,-0.584265,-0.163128,0.0708833,0.0159963,0.172917,-0.027526,-0.0458836,0.0390612,0.0140062,0.0285986,-0.000884854,0.193682,0.171553,0.152814,-0.0938646,0.021805,-0.0362926,-0.0126452,-38.9521,-44.7179,-16.6037,-223.07,22.3209,1.62209,-39.114,26.2743,-78.6335,-187.422,-9.71475,3.3224,6.76128,8.9927,-2.84318,-2.32341,-1.68622,1.7274,2.49384,-0.786473,10.4301,14.5444,11.5653,-10.1274,0.327065,-3.44897,0.543945,0.00416667,
-0.00617123,-0.00411224,-0.0121319,-0.031595,0.00849738,0.00681664,-0.00617671,0.000594378,-0.0598757,-0.0499243,-0.00699124,0.00860352,-0.00507236,0.0619407,0.00756407,-0.0175459,0.0675614,-0.0141025,-0.00115168,0.00894368,0.0652471,-0.00667906,0.0114777,0.0734618,0.0165594,0.00514781,-0.0194523,-0.599545,-1.19909,-1.63877,0.305082,2.87897,0.856037,-0.213182,0.266455,-5.96882,1.43565,-0.7333,1.2165,-0.15226,0.19638,-0.0381,-0.09966,0.02345,0.09673,0.15242,-0.00879,0.29897,0.38691,0.40743,-0.23742,0,-0.28432,0,-20,-18.68,0.07,-115.97,17.6465,0.632452,-30.4,20.88,-9.01,-200.07,-8.70096,3.55047,10.33,8.86,-2.86,-2.12,-1.83,1.54,2.27,-0.81,10.04,13.7,10.62,-10.04,0.22,-3,0.51,-0.0569444,-0.17742,-0.288655,-0.863606,0.550537,0.389555,-0.00982061,0.0577276,-0.486612,-0.743942,-0.381496,0.285016,-0.0442128,0.226171,-0.0407408,-0.0828063,-0.0209581,0.0239883,0.0365443,0.0201125,0.15951,0.149941,0.161471,-0.131345,0.0332614,-0.0452428,-0.0343241,-2.83591,-30.2851,-26.9915,-281.308,24.7596,20.638,11.9672,11.1428,-10.4565,-156.968,-20.5466,13.5192,-10.4353,12.8235,-3.78986,-5.06277,-5.31887,2.26519,2.96476,0.893394,7.11834,11.8044,11.3152,-12.229,0.997656,-3.97982,-1.18834,0.00833333,
-0.00740004,-0.00692523,-0.016191,-0.0321743,0.0161632,0.00909153,-0.00651789,0.00123513,-0.0741329,-0.0451635,-0.00900736,0.0118883,-0.00542259,0.0624201,0.00746655,-0.0178056,0.0675931,-0.0138607,-0.000743389,0.00894272,0.0660608,-0.00576472,0.0124793,0.072789,0.0165577,0.00436723,-0.0194529,-0.413,-1.13245,-1.62545,-0.287143,3.47655,1.11117,-0.133227,0.266455,-6.02214,2.02788,-0.935379,1.4948,-0.137039,0.19932,-0.04983,-0.12311,0.00879,0.10259,0.20225,0,0.35173,0.38105,0.40743,-0.30777,0.00293,-0.35173,0.00293,-23.66,-20.29,0.81,-149.67,17.8664,0.521866,-31.72,20.44,-7.25,-214.14,-8.23757,2.35997,11.21,8.57,-2.71,-1.98,-1.68,1.68,2.12,-0.81,9.45,13.41,10.48,-9.89,0.22,-3,0.66,-0.0569444,-0.17742,-0.288655,-0.863606,0.550537,0.389555,-0.00982061,0.0577276,-0.486612,-0.743942,-0.381496,0.285016,-0.0442128,0.226171,-0.0407408,-0.0828063,-0.0209581,0.0239883,0.0365443,0.0201125,0.15951,0.149941,0.161471,-0.131345,0.0332614,-0.0452428,-0.0343241,-2.83591,-30.2851,-26.9915,-281.308,24.7596,20.638,11.9672,11.1428,-10.4565,-156.968,-20.5466,13.5192,-10.4353,12.8235,-3.78986,-5.06277,-5.31887,2.26519,2.96476,0.893394,7.11834,11.8044,11.3152,-12.229,0.997656,-3.97982,-1.18834,0.00833333,
-0.00815749,-0.00934732,-0.0200112,-0.0324022,0.0251293,0.0119152,-0.00692844,0.00166798,-0.0887675,-0.042103,-0.0115568,0.0158221,-0.0055747,0.0626514,0.00741029,-0.0179596,0.0676,-0.0137184,-0.000465989,0.00894272,0.0664954,-0.00529528,0.0129478,0.0724075,0.0165606,0.00392723,-0.0194523,-0.266455,-0.839364,-1.59877,0.0179388,3.91812,1.08363,-0.266455,0.0932727,-6.182,0.502469,-1.11905,1.62833,-0.106597,0.19638,-0.03517,-0.13483,0,0.12311,0.23449,0.00293,0.37225,0.36346,0.39863,-0.32242,0,-0.3488,-0.00293,-27.47,-24.25,0.95,-162.42,14.642,-0.555984,-29.38,23.08,-3.59,-186.45,-8.18307,1.16296,10.62,8.42,-2.71,-1.98,-1.68,1.54,2.12,-0.81,9.45,13.41,10.48,-9.74,0.22,-3,0.51,-0.0569444,-0.17742,-0.288655,-0.863606,0.550537,0.389555,-0.00982061,0.0577276,-0.486612,-0.743942,-0.381496,0.285016,-0.0442128,0.226171,-0.0407408,-0.0828063,-0.0209581,0.0239883,0.0365443,0.0201125,0.15951,0.149941,0.161471,-0.131345,0.0332614,-0.0452428,-0.0343241,-2.83591,-30.2851,-26.9915,-281.308,24.7596,20.638,11.9672,11.1428,-10.4565,-156.968,-20.5466,13.5192,-10.4353,12.8235,-3.78986,-5.06277,-5.31887,2.26519,2.96476,0.893394,7.11834,11.8044,11.3152,-12.229,0.997656,-3.97982,-1.18834,0.00833333,
-0.00843215,-0.0102572,-0.0219615,-0.0323873,0.0300547,0.0130321,-0.00733352,0.00168455,-0.0961554,-0.0419872,-0.0129828,0.0178831,-0.00580001,0.0631077,0.00731063,-0.018271,0.0675793,-0.0134225,8.59499e-05,0.00894368,0.0674262,-0.00443363,0.0138574,0.0715549,0.0165594,0.00307322,-0.0194529,-0.2265,-0.692818,-1.55882,0,4.15413,1.09703,-0.373045,-0.0399545,-6.35518,-0.179449,-1.17423,1.68543,-0.0685195,0.18466,-0.03517,-0.13776,-0.02052,0.13776,0.21104,0,0.39277,0.3488,0.3576,-0.3488,0.00879,-0.37518,-0.00293,-28.64,-26.59,0.95,-160.81,10.5211,-2.88095,-25.57,24.98,-4.62,-172.09,-7.04532,0.338353,9.16,8.28,-2.71,-1.98,-1.68,1.54,2.12,-0.81,9.45,13.41,10.48,-9.74,0.22,-3,0.51,-0.0569444,-0.17742,-0.288655,-0.863606,0.550537,0.389555,-0.00982061,0.0577276,-0.486612,-0.743942,-0.381496,0.285016,-0.0442128,0.226171,-0.0407408,-0.0828063,-0.0209581,0.0239883,0.0365443,0.0201125,0.15951,0.149941,0.161471,-0.131345,0.0332614,-0.0452428,-0.0343241,-2.83591,-30.2851,-26.9915,-281.308,24.7596,20.638,11.9672,11.1428,-10.4565,-156.968,-20.5466,13.5192,-10.4353,12.8235,-3.78986,-5.06277,-5.31887,2.26519,2.96476,0.893394,7.11834,11.8044,11.3152,-12.229,0.997656,-3.97982,-1.18834,0.00833333,
-0.00902581,-0.0116084,-0.0257483,-0.032391,0.0405574,0.015842,-0.00834894,0.00131559,-0.111858,-0.0433773,-0.0159896,0.0220595,-0.00593472,0.0635276,0.00722241,-0.0185943,0.0674953,-0.0130873,0.000521421,0.00894833,0.0683622,-0.00360727,0.0146704,0.0706956,0.0165713,0.0021137,-0.0194579,-0.266455,-0.466318,-1.90523,0,4.5009,0.989479,-0.399682,-0.279773,-6.48841,-1.07676,-1.25981,1.64211,-0.0761299,0.17587,-0.0381,-0.14069,-0.05862,0.14949,0.16121,0.01466,0.37225,0.31949,0.32242,-0.37225,0.01466,-0.41329,-0.01172,-13.55,-38.61,-21.17,-176.92,11.4015,-1.66147,8.28,20.44,0.37,-92.38,-6.36128,-0.962649,-9.45,12.82,-3.74,-4.91,-5.35,1.98,2.86,0.37,6.52,11.79,11.21,-11.94,0.81,-3.44,-0.51,-0.0569444,-0.17742,-0.288655,-0.863606,0.550537,0.389555,-0.00982061,0.0577276,-0.486612,-0.743942,-0.381496,0.285016,-0.0442128,0.226171,-0.0407408,-0.0828063,-0.0209581,0.0239883,0.0365443,0.0201125,0.15951,0.149941,0.161471,-0.131345,0.0332614,-0.0452428,-0.0343241,-2.83591,-30.2851,-26.9915,-281.308,24.7596,20.638,11.9672,11.1428,-10.4565,-156.968,-20.5466,13.5192,-10.4353,12.8235,-3.78986,-5.06277,-5.31887,2.26519,2.96476,0.893394,7.11834,11.8044,11.3152,-12.229,0.997656,-3.97982,-1.18834,0.00833333,
-0.00902581,-0.0116084,-0.0257483,-0.032391,0.0461491,0.0167026,-0.00834894,0.00131559,-0.111858,-0.0433773,-0.0175646,0.0239802,-0.00593472,0.0635276,0.00722241,-0.0185943,0.0674953,-0.0130873,0.000521421,0.00894833,0.0683622,-0.00360727,0.0146704,0.0706956,0.0165713,0.0021137,-0.0194579,-0.266455,-0.466318,-1.90523,0,4.65566,0.838658,-0.399682,-0.279773,-6.48841,-1.07676,-1.2653,1.45081,-0.0761299,0.17587,-0.0381,-0.14069,-0.05862,0.14949,0.16121,0.01466,0.37225,0.31949,0.32242,-0.37225,0.01466,-0.41329,-0.01172,-13.55,-38.61,-21.17,-176.92,2.76635,-2.19908,8.28,20.44,0.37,-92.38,-6.12002,-1.55066,-9.45,12.82,-3.74,-4.91,-5.35,1.98,2.86,0.37,6.52,11.79,11.21,-11.94,0.81,-3.44,-0.51,-0.0569444,-0.17742,-0.288655,-0.863606,0.550537,0.389555,-0.00982061,0.0577276,-0.486612,-0.743942,-0.381496,0.285016,-0.0442128,0.226171,-0.0407408,-0.0828063,-0.0209581,0.0239883,0.0365443,0.0201125,0.15951,0.149941,0.161471,-0.131345,0.0332614,-0.0452428,-0.0343241,-2.83591,-30.2851,-26.9915,-281.308,24.7596,20.638,11.9672,11.1428,-10.4565,-156.968,-20.5466,13.5192,-10.4353,12.8235,-3.78986,-5.06277,-5.31887,2.26519,2.96476,0.893394,7.11834,11.8044,11.3152,-12.229,0.997656,-3.97982,-1.18834,0.00833333,
-0.00902581,-0.0116084,-0.0257483,-0.032391,0.0461491,0.0167026,-0.00834894,0.00131559,-0.111858,-0.0433773,-0.0175654,0.0239815,-0.00593472,0.0635276,0.00722241,-0.0185943,0.0674953,-0.0130873,0.000521421,0.00894833,0.0683622,-0.00360727,0.0146704,0.0706956,0.0165713,0.0021137,-0.0194579,-0.266455,-0.466318,-1.90523,0,4.65566,0.838658,-0.399682,-0.279773,-6.48841,-1.07676,-1.2653,1.45081,-0.0761299,0.17587,-0.0381,-0.14069,-0.05862,0.14949,0.16121,0.01466,0.37225,0.31949,0.32242,-0.37225,0.01466,-0.41329,-0.01172,-13.55,-38.61,-21.17,-176.92,2.76635,-2.19908,8.28,20.44,0.37,-92.38,-6.12002,-1.55066,-9.45,12.82,-3.74,-4.91,-5.35,1.98,2.86,0.37,6.52,11.79,11.21,-11.94,0.81,-3.44,-0.51,-0.0569444,-0.17742,-0.288655,-0.863606,0.550537,0.389555,-0.00982061,0.0577276,-0.486612,-0.743942,-0.381496,0.285016,-0.0442128,0.226171,-0.0407408,-0.0828063,-0.0209581,0.0239883,0.0365443,0.0201125,0.15951,0.149941,0.161471,-0.131345,0.0332614,-0.0452428,-0.0343241,-2.83591,-30.2851,-26.9915,-281.308,24.7596,20.638,11.9672,11.1428,-10.4565,-156.968,-20.5466,13.5192,-10.4353,12.8235,-3.78986,-5.06277,-5.31887,2.26519,2.96476,0.893394,7.11834,11.8044,11.3152,-12.229,0.997656,-3.97982,-1.18834,0.00833333,
-0.00902581,-0.0116084,-0.0257483,-0.032391,0.0461491,0.0167026,-0.00834894,0.00131559,-0.111858,-0.0433773,-0.0175654,0.0239815,-0.00593472,0.0635276,0.00722241,-0.0185943,0.0674953,-0.0130873,0.000521421,0.00894833,0.0683622,-0.00360727,0.0146704,0.0706956,0.0165713,0.0021137,-0.0194579,-0.266455,-0.466318,-1.90523,0,4.65566,0.838658,-0.399682,-0.279773,-6.48841,-1.07676,-1.2653,1.45081,-0.0761299,0.17587,-0.0381,-0.14069,-0.05862,0.14949,0.16121,0.01466,0.37225,0.31949,0.32242,-0.37225,0.01466,-0.41329,-0.01172,-13.55,-38.61,-21.17,-176.92,2.76635,-2.19908,8.28,20.44,0.37,-92.38,-6.12002,-1.55066,-9.45,12.82,-3.74,-4.91,-5.35,1.98,2.86,0.37,6.52,11.79,11.21,-11.94,0.81,-3.44,-0.51,-0.0569444,-0.17742,-0.288655,-0.863606,0.550537,0.389555,-0.00982061,0.0577276,-0.486612,-0.743942,-0.381496,0.285016,-0.0442128,0.226171,-0.0407408,-0.0828063,-0.0209581,0.0239883,0.0365443,0.0201125,0.15951,0.149941,0.161471,-0.131345,0.0332614,-0.0452428,-0.0343241,-2.83591,-30.2851,-26.9915,-281.308,24.7596,20.638,11.9672,11.1428,-10.4565,-156.968,-20.5466,13.5192,-10.4353,12.8235,-3.78986,-5.06277,-5.31887,2.26519,2.96476,0.893394,7.11834,11.8044,11.3152,-12.229,0.997656,-3.97982,-1.18834,0.00833333,
-0.00902581,-0.0116084,-0.0257483,-0.032391,0.0461491,0.0167026,-0.00834894,0.00131559,-0.111858,-0.0433773,-0.0175654,0.0239815,-0.00593472,0.0635276,0.00722241,-0.0185943,0.0674953,-0.0130873,0.000521421,0.00894833,0.0683622,-0.00360727,0.0146704,0.0706956,0.0165713,0.0021137,-0.0194579,-0.266455,-0.466318,-1.90523,0,4.65566,0.838658,-0.399682,-0.279773,-6.48841,-1.07676,-1.2653,1.45081,-0.0761299,0.17587,-0.0381,-0.14069,-0.05862,0.14949,0.16121,0.01466,0.37225,0.31949,0.32242,-0.37225,0.01466,-0.41329,-0.01172,-13.55,-38.61,-21.17,-176.92,2.76635,-2.19908,8.28,20.44,0.37,-92.38,-6.12002,-1.55066,-9.45,12.82,-3.74,-4.91,-5.35,1.98,2.86,0.37,6.52,11.79,11.21,-11.94,0.81,-3.44,-0.51,-0.0569444,-0.17742,-0.288655,-0.863606,0.550537,0.389555,-0.00982061,0.0577276,-0.486612,-0.743942,-0.381496,0.285016,-0.0442128,0.226171,-0.0407408,-0.0828063,-0.0209581,0.0239883,0.0365443,0.0201125,0.15951,0.149941,0.161471,-0.131345,0.0332614,-0.0452428,-0.0343241,-2.83591,-30.2851,-26.9915,-281.308,24.7596,20.638,11.9672,11.1428,-10.4565,-156.968,-20.5466,13.5192,-10.4353,12.8235,-3.78986,-5.06277,-5.31887,2.26519,2.96476,0.893394,7.11834,11.8044,11.3152,-12.229,0.997656,-3.97982,-1.18834,0.00833333,
-0.00902581,-0.0116084,-0.0257483,-0.032391,0.0461491,0.0167026,-0.00834894,0.00131559,-0.111858,-0.0433773,-0.0175654,0.0239815,-0.00593472,0.0635276,0.00722241,-0.0185943,0.0674953,-0.0130873,0.000521421,0.00894833,0.0683622,-0.00360727,0.0146704,0.0706956,0.0165713,0.0021137,-0.0194579,-0.266455,-0.466318,-1.90523,0,4.65566,0.838658,-0.399682,-0.279773,-6.48841,-1.07676,-1.2653,1.45081,-0.0761299,0.17587,-0.0381,-0.14069,-0.05862,0.14949,0.16121,0.01466,0.37225,0.31949,0.32242,-0.37225,0.01466,-0.41329,-0.01172,-13.55,-38.61,-21.17,-176.92,2.76635,-2.19908,8.28,20.44,0.37,-92.38,-6.12002,-1.55066,-9.45,12.82,-3.74,-4.91,-5.35,1.98,2.86,0.37,6.52,11.79,11.21,-11.94,0.81,-3.44,-0.51,-0.0455529,-0.117755,-0.292401,-0.749612,0.718475,0.30557,-0.00283986,0.0934919,0.0188643,-0.794012,-3.4774e-05,0.152254,-0.118477,0.0703675,-0.0440494,-0.107998,-0.214084,0.0361335,-0.00704713,0.0245198,-0.0477396,-0.0533793,0.00376246,-0.177843,0.0155161,-0.0398214,-0.0878735,-8.41724,-21.3175,-21.0691,-230.084,22.799,14.2797,13.3175,30.6656,78.7635,-218.816,5.94713,2.17832,-33.5775,0.195452,-4.02554,-6.8709,-16.8655,2.8785,-0.686089,1.23839,-10.0326,-4.62075,-1.51747,-14.7262,-0.0706431,-3.14816,-5.46739,0.0125,
-0.00902581,-0.0116084,-0.0257483,-0.032391,0.0461491,0.0167026,-0.00834894,0.00131559,-0.111858,-0.0433773,-0.0175654,0.0239815,-0.00593472,0.0635276,0.00722241,-0.0185943,0.0674953,-0.0130873,0.000521421,0.00894833,0.0683622,-0.00360727,0.0146704,0.0706956,0.0165713,0.0021137,-0.0194579,-0.266455,-0.466318,-1.90523,0,4.65566,0.838658,-0.399682,-0.279773,-6.48841,-1.07676,-1.2653,1.45081,-0.0761299,0.17587,-0.0381,-0.14069,-0.05862,0.14949,0.16121,0.01466,0.37225,0.31949,0.32242,-0.37225,0.01466,-0.41329,-0.01172,-13.55,-38.61,-21.17,-176.92,2.76635,-2.19908,8.28,20.44,0.37,-92.38,-6.12002,-1.55066,-9.45,12.82,-3.74,-4.91,-5.35,1.98,2.86,0.37,6.52,11.79,11.21,-11.94,0.81,-3.44,-0.51,-0.0455529,-0.117755,-0.292401,-0.749612,0.718475,0.30557,-0.00283986,0.0934919,0.0188643,-0.794012,-3.4774e-05,0.152254,-0.118477,0.0703675,-0.0440494,-0.107998,-0.214084,0.0361335,-0.00704713,0.0245198,-0.0477396,-0.0533793,0.00376246,-0.177843,0.0155161,-0.0398214,-0.0878735,-8.41724,-21.3175,-21.0691,-230.084,22.799,14.2797,13.3175,30.6656,78.7635,-218.816,5.94713,2.17832,-33.5775,0.195452,-4.02554,-6.8709,-16.8655,2.8785,-0.686089,1.23839,-10.0326,-4.62075,-1.51747,-14.7262,-0.0706431,-3.14816,-5.46739,0.0125,
-0.00902581,-0.0116084,-0.0257483,-0.032391,0.0461491,0.0167026,-0.00834894,0.00131559,-0.111858,-0.0433773,-0.0175654,0.0239815,-0.00593472,0.0635276,0.00722241,-0.0185943,0.0674953,-0.0130873,0.000521421,0.00894833,0.0683622,-0.00360727,0.0146704,0.0706956,0.0165713,0.0021137,-0.0194579,-0.266455,-0.466318,-1.90523,0,4.65566,0.838658,-0.399682,-0.279773,-6.48841,-1.07676,-1.2653,1.45081,-0.0761299,0.17587,-0.0381,-0.14069,-0.05862,0.14949,0.16121,0.01466,0.37225,0.31949,0.32242,-0.37225,0.01466,-0.41329,-0.01172,-13.55,-38.61,-21.17,-176.92,2.76635,-2.19908,8.28,20.44,0.37,-92.38,-6.12002,-1.55066,-9.45,12.82,-3.74,-4.91,-5.35,1.98,2.86,0.37,6.52,11.79,11.21,-11.94,0.81,-3.44,-0.51,-0.0455529,-0.117755,-0.292401,-0.749612,0.718475,0.30557,-0.00283986,0.0934919,0.0188643,-0.794012,-3.4774e-05,0.152254,-0.118477,0.0703675,-0.0440494,-0.107998,-0.214084,0.0361335,-0.00704713,0.0245198,-0.0477396,-0.0533793,0.00376246,-0.177843,0.0155161,-0.0398214,-0.0878735,-8.41724,-21.3175,-21.0691,-230.084,22.799,14.2797,13.3175,30.6656,78.7635,-218.816,5.94713,2.17832,-33.5775,0.195452,-4.02554,-6.8709,-16.8655,2.8785,-0.686089,1.23839,-10.0326,-4.62075,-1.51747,-14.7262,-0.0706431,-3.14816,-5.46739,0.0125,
-0.00902581,-0.0116084,-0.0257483,-0.032391,0.0461491,0.0167026,-0.00834894,0.00131559,-0.111858,-0.0433773,-0.0175654,0.0239815,-0.00593472,0.0635276,0.00722241,-0.0185943,0.0674953,-0.0130873,0.000521421,0.00894833,0.0683622,-0.00360727,0.0146704,0.0706956,0.0165713,0.0021137,-0.0194579,-0.266455,-0.466318,-1.90523,0,4.65566,0.838658,-0.399682,-0.279773,-6.48841,-1.07676,-1.2653,1.45081,-0.0761299,0.17587,-0.0381,-0.14069,-0.05862,0.14949,0.16121,0.01466,0.37225,0.31949,0.32242,-0.37225,0.01466,-0.41329,-0.01172,-13.55,-38.61,-21.17,-176.92,2.76635,-2.19908,8.28,20.44,0.37,-92.38,-6.12002,-1.55066,-9.45,12.82,-3.74,-4.91,-5.35,1.98,2.86,0.37,6.52,11.79,11.21,-11.94,0.81,-3.44,-0.51,-0.0455529,-0.117755,-0.292401,-0.749612,0.718475,0.30557,-0.00283986,0.0934919,0.0188643,-0.794012,-3.4774e-05,0.152254,-0.118477,0.0703675,-0.0440494,-0.107998,-0.214084,0.0361335,-0.00704713,0.0245198,-0.0477396,-0.0533793,0.00376246,-0.177843,0.0155161,-0.0398214,-0.0878735,-8.41724,-21.3175,-21.0691,-230.084,22.799,14.2797,13.3175,30.6656,78.7635,-218.816,5.94713,2.17832,-33.5775,0.195452,-4.02554,-6.8709,-16.8655,2.8785,-0.686089,1.23839,-10.0326,-4.62075,-1.51747,-14.7262,-0.0706431,-3.14816,-5.46739,0.0125,
-0.00902581,-0.0116084,-0.0257483,-0.032391,0.0461491,0.0167026,-0.00834894,0.00131559,-0.111858,-0.0433773,-0.0175654,0.0239815,-0.00593472,0.0635276,0.00722241,-0.0185943,0.0674953,-0.0130873,0.000521421,0.00894833,0.0683622,-0.00360727,0.0146704,0.0706956,0.0165713,0.0021137,-0.0194579,-0.266455,-0.466318,-1.90523,0,4.65566,0.838658,-0.399682,-0.279773,-6.48841,-1.07676,-1.2653,1.45081,-0.0761299,0.17587,-0.0381,-0.14069,-0.05862,0.14949,0.16121,0.01466,0.37225,0.31949,0.32242,-0.37225,0.01466,-0.41329,-0.01172,-13.55,-38.61,-21.17,-176.92,2.76635,-2.19908,8.28,20.44,0.37,-92.38,-6.12002,-1.55066,-9.45,12.82,-3.74,-4.91,-5.35,1.98,2.86,0.37,6.52,11.79,11.21,-11.94,0.81,-3.44,-0.51,-0.0455529,-0.117755,-0.292401,-0.749612,0.718475,0.30557,-0.00283986,0.0934919,0.0188643,-0.794012,-3.4774e-05,0.152254,-0.118477,0.0703675,-0.0440494,-0.107998,-0.214084,0.0361335,-0.00704713,0.0245198,-0.0477396,-0.0533793,0.00376246,-0.177843,0.0155161,-0.0398214,-0.0878735,-8.41724,-21.3175,-21.0691,-230.084,22.799,14.2797,13.3175,30.6656,78.7635,-218.816,5.94713,2.17832,-33.5775,0.195452,-4.02554,-6.8709,-16.8655,2.8785,-0.686089,1.23839,-10.0326,-4.62075,-1.51747,-14.7262,-0.0706431,-3.14816,-5.46739,0.0125,
-0.00902581,-0.0116084,-0.0257483,-0.032391,0.0461491,0.0167026,-0.00834894,0.00131559,-0.111858,-0.0433773,-0.0175654,0.0239815,-0.00593472,0.0635276,0.00722241,-0.0185943,0.0674953,-0.0130873,0.000521421,0.00894833,0.0683622,-0.00360727,0.0146704,0.0706956,0.0165713,0.0021137,-0.0194579,-0.266455,-0.466318,-1.90523,0,4.65566,0.838658,-0.399682,-0.279773,-6.48841,-1.07676,-1.2653,1.45081,-0.0761299,0.17587,-0.0381,-0.14069,-0.05862,0.14949,0.16121,0.01466,0.37225,0.31949,0.32242,-0.37225,0.01466,-0.41329,-0.01172,-13.55,-38.61,-21.17,-176.92,2.76635,-2.19908,8.28,20.44,0.37,-92.38,-6.12002,-1.55066,-9.45,12.82,-3.74,-4.91,-5.35,1.98,2.86,0.37,6.52,11.79,11.21,-11.94,0.81,-3.44,-0.51,-0.0455529,-0.117755,-0.292401,-0.749612,0.718475,0.30557,-0.00283986,0.0934919,0.0188643,-0.794012,-3.4774e-05,0.152254,-0.118477,0.0703675,-0.0440494,-0.107998,-0.214084,0.0361335,-0.00704713,0.0245198,-0.0477396,-0.0533793,0.00376246,-0.177843,0.0155161,-0.0398214,-0.0878735,-8.41724,-21.3175,-21.0691,-230.084,22.799,14.2797,13.3175,30.6656,78.7635,-218.816,5.94713,2.17832,-33.5775,0.195452,-4.02554,-6.8709,-16.8655,2.8785,-0.686089,1.23839,-10.0326,-4.62075,-1.51747,-14.7262,-0.0706431,-3.14816,-5.46739,0.0125,
-0.00902581,-0.0116084,-0.0257483,-0.032391,0.0461491,0.0167026,-0.00834894,0.00131559,-0.111858,-0.0433773,-0.0175654,0.0239815,-0.00593472,0.0635276,0.00722241,-0.0185943,0.0674953,-0.0130873,0.000521421,0.00894833,0.0683622,-0.00360727,0.0146704,0.0706956,0.0165713,0.0021137,-0.0194579,-0.266455,-0.466318,-1.90523,0,4.65566,0.838658,-0.399682,-0.279773,-6.48841,-1.07676,-1.2653,1.45081,-0.0761299,0.17587,-0.0381,-0.14069,-0.05862,0.14949,0.16121,0.01466,0.37225,0.31949,0.32242,-0.37225,0.01466,-0.41329,-0.01172,-13.55,-38.61,-21.17,-176.92,2.76635,-2.19908,8.28,20.44,0.37,-92.38,-6.12002,-1.55066,-9.45,12.82,-3.74,-4.91,-5.35,1.98,2.86,0.37,6.52,11.79,11.21,-11.94,0.81,-3.44,-0.51,-0.0455529,-0.117755,-0.292401,-0.749612,0.718475,0.30557,-0.00283986,0.0934919,0.0188643,-0.794012,-3.4774e-05,0.152254,-0.118477,0.0703675,-0.0440494,-0.107998,-0.214084,0.0361335,-0.00704713,0.0245198,-0.0477396,-0.0533793,0.00376246,-0.177843,0.0155161,-0.0398214,-0.0878735,-8.41724,-21.3175,-21.0691,-230.084,22.799,14.2797,13.3175,30.6656,78.7635,-218.816,5.94713,2.17832,-33.5775,0.195452,-4.02554,-6.8709,-16.8655,2.8785,-0.686089,1.23839,-10.0326,-4.62075,-1.51747,-14.7262,-0.0706431,-3.14816,-5.46739,0.0125,
-0.00902581,-0.0116084,-0.0257483,-0.032391,0.0461491,0.0167026,-0.00834894,0.00131559,-0.111858,-0.0433773,-0.0175654,0.0239815,-0.00593472,0.0635276,0.00722241,-0.0185943,0.0674953,-0.0130873,0.000521421,0.00894833,0.0683622,-0.00360727,0.0146704,0.0706956,0.0165713,0.0021137,-0.0194579,-0.266455,-0.466318,-1.90523,0,4.65566,0.838658,-0.399682,-0.279773,-6.48841,-1.07676,-1.2653,1.45081,-0.0761299,0.17587,-0.0381,-0.14069,-0.05862,0.14949,0.16121,0.01466,0.37225,0.31949,0.32242,-0.37225,0.01466,-0.41329,-0.01172,-13.55,-38.61,-21.17,-176.92,2.76635,-2.19908,8.28,20.44,0.37,-92.38,-6.12002,-1.55066,-9.45,12.82,-3.74,-4.91,-5.35,1.98,2.86,0.37,6.52,11.79,11.21,-11.94,0.81,-3.44,-0.51,-0.0455529,-0.117755,-0.292401,-0.749612,0.718475,0.30557,-0.00283986,0.0934919,0.0188643,-0.794012,-3.4774e-05,0.152254,-0.118477,0.0703675,-0.0440494,-0.107998,-0.214084,0.0361335,-0.00704713,0.0245198,-0.0477396,-0.0533793,0.00376246,-0.177843,0.0155161,-0.0398214,-0.0878735,-8.41724,-21.3175,-21.0691,-230.084,22.799,14.2797,13.3175,30.6656,78.7635,-218.816,5.94713,2.17832,-33.5775,0.195452,-4.02554,-6.8709,-16.8655,2.8785,-0.686089,1.23839,-10.0326,-4.62075,-1.51747,-14.7262,-0.0706431,-3.14816,-5.46739,0.0125,
-0.00902581,-0.0116084,-0.0257483,-0.032391,0.0461491,0.0167026,-0.00834894,0.00131559,-0.111858,-0.0433773,-0.0175654,0.0239815,-0.00593472,0.0635276,0.00722241,-0.0185943,0.0674953,-0.0130873,0.000521421,0.00894833,0.0683622,-0.00360727,0.0146704,0.0706956,0.0165713,0.0021137,-0.0194579,-0.266455,-0.466318,-1.90523,0,4.65566,0.838658,-0.399682,-0.279773,-6.48841,-1.07676,-1.2653,1.45081,-0.0761299,0.17587,-0.0381,-0.14069,-0.05862,0.14949,0.16121,0.01466,0.37225,0.31949,0.32242,-0.37225,0.01466,-0.41329,-0.01172,-13.55,-38.61,-21.17,-176.92,2.76635,-2.19908,8.28,20.44,0.37,-92.38,-6.12002,-1.55066,-9.45,12.82,-3.74,-4.91,-5.35,1.98,2.86,0.37,6.52,11.79,11.21,-11.94,0.81,-3.44,-0.51,-0.0455529,-0.117755,-0.292401,-0.749612,0.718475,0.30557,-0.00283986,0.0934919,0.0188643,-0.794012,-3.4774e-05,0.152254,-0.118477,0.0703675,-0.0440494,-0.107998,-0.214084,0.0361335,-0.00704713,0.0245198,-0.0477396,-0.0533793,0.00376246,-0.177843,0.0155161,-0.0398214,-0.0878735,-8.41724,-21.3175,-21.0691,-230.084,22.799,14.2797,13.3175,30.6656,78.7635,-218.816,5.94713,2.17832,-33.5775,0.195452,-4.02554,-6.8709,-16.8655,2.8785,-0.686089,1.23839,-10.0326,-4.62075,-1.51747,-14.7262,-0.0706431,-3.14816,-5.46739,0.0125,
-0.00902581,-0.0116084,-0.0257483,-0.032391,0.0461491,0.0167026,-0.00834894,0.00131559,-0.111858,-0.0433773,-0.0175654,0.0239815,-0.00593472,0.0635276,0.00722241,-0.0185943,0.0674953,-0.0130873,0.000521421,0.00894833,0.0683622,-0.00360727,0.0146704,0.0706956,0.0165713,0.0021137,-0.0194579,-0.266455,-0.466318,-1.90523,0,4.65566,0.838658,-0.399682,-0.279773,-6.48841,-1.07676,-1.2653,1.45081,-0.0761299,0.17587,-0.0381,-0.14069,-0.05862,0.14949,0.16121,0.01466,0.37225,0.31949,0.32242,-0.37225,0.01466,-0.41329,-0.01172,-13.55,-38.61,-21.17,-176.92,2.76635,-2.19908,8.28,20.44,0.37,-92.38,-6.12002,-1.55066,-9.45,12.82,-3.74,-4.91,-5.35,1.98,2.86,0.37,6.52,11.79,11.21,-11.94,0.81,-3.44,-0.51,0.04119,-0.144047,-0.260623,-0.712985,0.704151,0.275233,0.0569327,0.212294,0.193314,-0.795292,0.240759,0.30312,-0.151792,0.009783,-0.0110741,-0.108515,-0.17805,0.0308249,-0.00419253,0.0242788,-0.0408826,-0.0606322,-0.0277522,-0.183451,0.000762192,-0.0181238,-0.0954887,28.9031,-28.6482,-16.4648,-218.335,21.9304,12.44,39.034,63.7889,104.039,-219.227,20.5489,11.3269,-44.2383,-4.65131,-1.38752,-6.91231,-14.7034,2.55998,-0.457721,1.21911,-9.48409,-5.20097,-4.03865,-15.0626,-0.955875,-1.41235,-6.0766,0.0166667,
-0.00902581,-0.0116084,-0.0257483,-0.032391,0.0461491,0.0167026,-0.00834894,0.00131559,-0.111858,-0.0433773,-0.0175654,0.0239815,-0.00593472,0.0635276,0.00722241,-0.0185943,0.0674953,-0.0130873,0.000521421,0.00894833,0.0683622,-0.00360727,0.0146704,0.0706956,0.0165713,0.0021137,-0.0194579,-0.266455,-0.466318,-1.90523,0,4.65566,0.838658,-0.399682,-0.279773,-6.48841,-1.07676,-1.2653,1.45081,-0.0761299,0.17587,-0.0381,-0.14069,-0.05862,0.14949,0.16121,0.01466,0.37225,0.31949,0.32242,-0.37225,0.01466,-0.41329,-0.01172,-13.55,-38.61,-21.17,-176.92,2.76635,-2.19908,8.28,20.44,0.37,-92.38,-6.12002,-1.55066,-9.45,12.82,-3.74,-4.91,-5.35,1.98,2.86,0.37,6.52,11.79,11.21,-11.94,0.81,-3.44,-0.51,0.04119,-0.144047,-0.260623,-0.712985,0.704151,0.275233,0.0569327,0.212294,0.193314,-0.795292,0.240759,0.30312,-0.151792,0.009783,-0.0110741,-0.108515,-0.17805,0.0308249,-0.00419253,0.0242788,-0.0408826,-0.0606322,-0.0277522,-0.183451,0.000762192,-0.0181238,-0.0954887,28.9031,-28.6482,-16.4648,-218.335,21.9304,12.44,39.034,63.7889,104.039,-219.227,20.5489,11.3269,-44.2383,-4.65131,-1.38752,-6.91231,-14.7034,2.55998,-0.457721,1.21911,-9.48409,-5.20097,-4.03865,-15.0626,-0.955875,-1.41235,-6.0766,0.0166667,
-0.00902581,-0.0116084,-0.0257483,-0.032391,0.0461491,0.0167026,-0.00834894,0.00131559,-0.111858,-0.0433773,-0.0175654,0.0239815,-0.00593472,0.0635276,0.00722241,-0.0185943,0.0674953,-0.0130873,0.000521421,0.00894833,0.0683622,-0.00360727,0.0146704,0.0706956,0.0165713,0.0021137,-0.0194579,-0.266455,-0.466318,-1.90523,0,4.65566,0.838658,-0.399682,-0.279773,-6.48841,-1.07676,-1.2653,1.45081,-0.0761299,0.17587,-0.0381,-0.14069,-0.05862,0.14949,0.16121,0.01466,0.37225,0.31949,0.32242,-0.37225,0.01466,-0.41329,-0.01172,-13.55,-38.61,-21.17,-176.92,2.76635,-2.19908,8.28,20.44,0.37,-92.38,-6.12002,-1.55066,-9.45,12.82,-3.74,-4.91,-5.35,1.98,2.86,0.37,6.52,11.79,11.21,-11.94,0.81,-3.44,-0.51,0.04119,-0.144047,-0.260623,-0.712985,0.704151,0.275233,0.0569327,0.212294,0.193314,-0.795292,0.240759,0.30312,-0.151792,0.009783,-0.0110741,-0.108515,-0.17805,0.0308249,-0.00419253,0.0242788,-0.0408826,-0.0606322,-0.0277522,-0.183451,0.000762192,-0.0181238,-0.0954887,28.9031,-28.6482,-16.4648,-218.335,21.9304,12.44,39.034,63.7889,104.039,-219.227,20.5489,11.3269,-44.2383,-4.65131,-1.38752,-6.91231,-14.7034,2.55998,-0.457721,1.21911,-9.48409,-5.20097,-4.03865,-15.0626,-0.955875,-1.41235,-6.0766,0.0166667,
-0.00902581,-0.0116084,-0.0257483,-0.032391,0.0461491,0.0167026,-0.00834894,0.00131559,-0.111858,-0.0433773,-0.0175654,0.0239815,-0.00593472,0.0635276,0.00722241,-0.0185943,0.0674953,-0.0130873,0.000521421,0.00894833,0.0683622,-0.00360727,0.0146704,0.0706956,0.0165713,0.0021137,-0.0194579,-0.266455,-0.466318,-1.90523,0,4.65566,0.838658,-0.399682,-0.279773,-6.48841,-1.07676,-1.2653,1.45081,-0.0761299,0.17587,-0.0381,-0.14069,-0.05862,0.14949,0.16121,0.01466,0.37225,0.31949,0.32242,-0.37225,0.01466,-0.41329,-0.01172,-13.55,-38.61,-21.17,-176.92,2.76635,-2.19908,8.28,20.44,0.37,-92.38,-6.12002,-1.55066,-9.45,12.82,-3.74,-4.91,-5.35,1.98,2.86,0.37,6.52,11.79,11.21,-11.94,0.81,-3.44,-0.51,0.04119,-0.144047,-0.260623,-0.712985,0.704151,0.275233,0.0569327,0.212294,0.193314,-0.795292,0.240759,0.30312,-0.151792,0.009783,-0.0110741,-0.108515,-0.17805,0.0308249,-0.00419253,0.0242788,-0.0408826,-0.0606322,-0.0277522,-0.183451,0.000762192,-0.0181238,-0.0954887,28.9031,-28.6482,-16.4648,-218.335,21.9304,12.44,39.034,63.7889,104.039,-219.227,20.5489,11.3269,-44.2383,-4.65131,-1.38752,-6.91231,-14.7034,2.55998,-0.457721,1.21911,-9.48409,-5.20097,-4.03865,-15.0626,-0.955875,-1.41235,-6.0766,0.0166667,
-0.00902581,-0.0116084,-0.0257483,-0.032391,0.0461491,0.0167026,-0.00834894,0.00131559,-0.111858,-0.0433773,-0.0175654,0.0239815,-0.00593472,0.0635276,0.00722241,-0.0185943,0.0674953,-0.0130873,0.000521421,0.00894833,0.0683622,-0.00360727,0.0146704,0.0706956,0.0165713,0.0021137,-0.0194579,-0.266455,-0.466318,-1.90523,0,4.65566,0.838658,-0.399682,-0.279773,-6.48841,-1.07676,-1.2653,1.45081,-0.0761299,0.17587,-0.0381,-0.14069,-0.05862,0.14949,0.16121,0.01466,0.37225,0.31949,0.32242,-0.37225,0.01466,-0.41329,-0.01172,-13.55,-38.61,-21.17,-176.92,2.76635,-2.19908,8.28,20.44,0.37,-92.38,-6.12002,-1.55066,-9.45,12.82,-3.74,-4.91,-5.35,1.98,2.86,0.37,6.52,11.79,11.21,-11.94,0.81,-3.44,-0.51,0.04119,-0.144047,-0.260623,-0.712985,0.704151,0.275233,0.0569327,0.212294,0.193314,-0.795292,0.240759,0.30312,-0.151792,0.009783,-0.0110741,-0.108515,-0.17805,0.0308249,-0.00419253,0.0242788,-0.0408826,-0.0606322,-0.0277522,-0.183451,0.000762192,-0.0181238,-0.0954887,28.9031,-28.6482,-16.4648,-218.335,21.9304,12.44,39.034,63.7889,104.039,-219.227,20.5489,11.3269,-44.2383,-4.65131,-1.38752,-6.91231,-14.7034,2.55998,-0.457721,1.21911,-9.48409,-5.20097,-4.03865,-15.0626,-0.955875,-1.41235,-6.0766,0.0166667,
-0.00902581,-0.0116084,-0.0257483,-0.032391,0.0461491,0.0167026,-0.00834894,0.00131559,-0.111858,-0.0433773,-0.0175654,0.0239815,-0.00593472,0.0635276,0.00722241,-0.0185943,0.0674953,-0.0130873,0.000521421,0.00894833,0.0683622,-0.00360727,0.0146704,0.0706956,0.0165713,0.0021137,-0.0194579,-0.266455,-0.466318,-1.90523,0,4.65566,0.838658,-0.399682,-0.279773,-6.48841,-1.07676,-1.2653,1.45081,-0.0761299,0.17587,-0.0381,-0.14069,-0.05862,0.14949,0.16121,0.01466,0.37225,0.31949,0.32242,-0.37225,0.01466,-0.41329,-0.01172,-13.55,-38.61,-21.17,-176.92,2.76635,-2.19908,8.28,20.44,0.37,-92.38,-6.12002,-1.55066,-9.45,12.82,-3.74,-4.91,-5.35,1.98,2.86,0.37,6.52,11.79,11.21,-11.94,0.81,-3.44,-0.51,0.04119,-0.144047,-0.260623,-0.712985,0.704151,0.275233,0.0569327,0.212294,0.193314,-0.795292,0.240759,0.30312,-0.151792,0.009783,-0.0110741,-0.108515,-0.17805,0.0308249,-0.00419253,0.0242788,-0.0408826,-0.0606322,-0.0277522,-0.183451,0.000762192,-0.0181238,-0.0954887,28.9031,-28.6482,-16.4648,-218.335,21.9304,12.44,39.034,63.7889,104.039,-219.227,20.5489,11.3269,-44.2383,-4.65131,-1.38752,-6.91231,-14.7034,2.55998,-0.457721,1.21911,-9.48409,-5.20097,-4.03865,-15.0626,-0.955875,-1.41235,-6.0766,0.0166667,
-0.00902581,-0.0116084,-0.0257483,-0.032391,0.0461491,0.0167026,-0.00834894,0.00131559,-0.111858,-0.0433773,-0.0175654,0.0239815,-0.00593472,0.0635276,0.00722241,-0.0185943,0.0674953,-0.0130873,0.000521421,0.00894833,0.0683622,-0.00360727,0.0146704,0.0706956,0.0165713,0.0021137,-0.0194579,-0.266455,-0.466318,-1.90523,0,4.65566,0.838658,-0.399682,-0.279773,-6.48841,-1.07676,-1.2653,1.45081,-0.0761299,0.17587,-0.0381,-0.14069,-0.05862,0.14949,0.16121,0.01466,0.37225,0.31949,0.32242,-0.37225,0.01466,-0.41329,-0.01172,-13.55,-38.61,-21.17,-176.92,2.76635,-2.19908,8.28,20.44,0.37,-92.38,-6.12002,-1.55066,-9.45,12.82,-3.74,-4.91,-5.35,1.98,2.86,0.37,6.52,11.79,11.21,-11.94,0.81,-3.44,-0.51,0.04119,-0.144047,-0.260623,-0.712985,0.704151,0.275233,0.0569327,0.212294,0.193314,-0.795292,0.240759,0.30312,-0.151792,0.009783,-0.0110741,-0.108515,-0.17805,0.0308249,-0.00419253,0.0242788,-0.0408826,-0.0606322,-0.0277522,-0.183451,0.000762192,-0.0181238,-0.0954887,28.9031,-28.6482,-16.4648,-218.335,21.9304,12.44,39.034,63.7889,104.039,-219.227,20.5489,11.3269,-44.2383,-4.65131,-1.38752,-6.91231,-14.7034,2.55998,-0.457721,1.21911,-9.48409,-5.20097,-4.03865,-15.0626,-0.955875,-1.41235,-6.0766,0.0166667,
-0.00902581,-0.0116084,-0.0257483,-0.032391,0.0461491,0.0167026,-0.00834894,0.00131559,-0.111858,-0.0433773,-0.0175654,0.0239815,-0.00593472,0.0635276,0.00722241,-0.0185943,0.0674953,-0.0130873,0.000521421,0.00894833,0.0683622,-0.00360727,0.0146704,0.0706956,0.0165713,0.0021137,-0.0194579,-0.266455,-0.466318,-1.90523,0,4.65566,0.838658,-0.399682,-0.279773,-6.48841,-1.07676,-1.2653,1.45081,-0.0761299,0.17587,-0.0381,-0.14069,-0.05862,0.14949,0.16121,0.01466,0.37225,0.31949,0.32242,-0.37225,0.01466,-0.41329,-0.01172,-13.55,-38.61,-21.17,-176.92,2.76635,-2.19908,8.28,20.44,0.37,-92.38,-6.12002,-1.55066,-9.45,12.82,-3.74,-4.91,-5.35,1.98,2.86,0.37,6.52,11.79,11.21,-11.94,0.81,-3.44,-0.51,0.04119,-0.144047,-0.260623,-0.712985,0.704151,0.275233,0.0569327,0.212294,0.193314,-0.795292,0.240759,0.30312,-0.151792,0.009783,-0.0110741,-0.108515,-0.17805,0.0308249,-0.00419253,0.0242788,-0.0408826,-0.0606322,-0.0277522,-0.183451,0.000762192,-0.0181238,-0.0954887,28.9031,-28.6482,-16.4648,-218.335,21.9304,12.44,39.034,63.7889,104.039,-219.227,20.5489,11.3269,-44.2383,-4.65131,-1.38752,-6.91231,-14.7034,2.55998,-0.457721,1.21911,-9.48409,-5.20097,-4.03865,-15.0626,-0.955875,-1.41235,-6.0766,0.0166667,
-0.00902581,-0.0116084,-0.0257483,-0.032391,0.0461491,0.0167026,-0.00834894,0.00131559,-0.111858,-0.0433773,-0.0175654,0.0239815,-0.00593472,0.0635276,0.00722241,-0.0185943,0.0674953,-0.0130873,0.000521421,0.00894833,0.0683622,-0.00360727,0.0146704,0.0706956,0.0165713,0.0021137,-0.0194579,-0.266455,-0.466318,-1.90523,0,4.65566,0.838658,-0.399682,-0.279773,-6.48841,-1.07676,-1.2653,1.45081,-0.0761299,0.17587,-0.0381,-0.14069,-0.05862,0.14949,0.16121,0.01466,0.37225,0.31949,0.32242,-0.37225,0.01466,-0.41329,-0.01172,-13.55,-38.61,-21.17,-176.92,2.76635,-2.19908,8.28,20.44,0.37,-92.38,-6.12002,-1.55066,-9.45,12.82,-3.74,-4.91,-5.35,1.98,2.86,0.37,6.52,11.79,11.21,-11.94,0.81,-3.44,-0.51,0.04119,-0.144047,-0.260623,-0.712985,0.704151,0.275233,0.0569327,0.212294,0.193314,-0.795292,0.240759,0.30312,-0.151792,0.009783,-0.0110741,-0.108515,-0.17805,0.0308249,-0.00419253,0.0242788,-0.0408826,-0.0606322,-0.0277522,-0.183451,0.000762192,-0.0181238,-0.0954887,28.9031,-28.6482,-16.4648,-218.335,21.9304,12.44,39.034,63.7889,104.039,-219.227,20.5489,11.3269,-44.2383,-4.65131,-1.38752,-6.91231,-14.7034,2.55998,-0.457721,1.21911,-9.48409,-5.20097,-4.03865,-15.0626,-0.955875,-1.41235,-6.0766,0.0166667,
-0.00902581,-0.0116084,-0.0257483,-0.032391,0.0461491,0.0167026,-0.00834894,0.00131559,-0.111858,-0.0433773,-0.0175654,0.0239815,-0.00593472,0.0635276,0.00722241,-0.0185943,0.0674953,-0.0130873,0.000521421,0.00894833,0.0683622,-0.00360727,0.0146704,0.0706956,0.0165713,0.0021137,-0.0194579,-0.266455,-0.466318,-1.90523,0,4.65566,0.838658,-0.399682,-0.279773,-6.48841,-1.07676,-1.2653,1.45081,-0.0761299,0.17587,-0.0381,-0.14069,-0.05862,0.14949,0.16121,0.01466,0.37225,0.31949,0.32242,-0.37225,0.01466,-0.41329,-0.01172,-13.55,-38.61,-21.17,-176.92,2.76635,-2.19908,8.28,20.44,0.37,-92.38,-6.12002,-1.55066,-9.45,12.82,-3.74,-4.91,-5.35,1.98,2.86,0.37,6.52,11.79,11.21,-11.94,0.81,-3.44,-0.51,0.0335671,-0.198258,-0.176132,-0.720865,0.601333,0.141446,-0.0492316,0.226711,0.149642,-0.702897,-0.0555583,0.216075,-0.143334,0.0362992,-0.00510759,-0.0946317,-0.0471995,0.0336302,0.0225011,0.0300039,-0.00226819,0.00254243,0.00728496,-0.126395,-0.00476113,-0.00780045,-0.0752731,25.6234,-43.7627,-4.22295,-220.863,15.6955,4.32724,-6.64206,67.8085,97.7119,-189.586,2.58018,6.04841,-41.5316,-2.53001,-0.910201,-5.80161,-6.85238,2.7283,1.67777,1.67712,-6.39493,-0.147004,-1.23567,-11.6393,-1.28727,-0.586487,-4.45935,0.0208333,
-0.00902581,-0.0116084,-0.0257483,-0.032391,0.0461491,0.0167026,-0.00834894,0.00131559,-0.111858,-0.0433773,-0.0175654,0.0239815,-0.00593472,0.0635276,0.00722241,-0.0185943,0.0674953,-0.0130873,0.000521421,0.00894833,0.0683622,-0.00360727,0.0146704,0.0706956,0.0165713,0.0021137,-0.0194579,-0.266455,-0.466318,-1.90523,0,4.65566,0.838658,-0.399682,-0.279773,-6.48841,-1.07676,-1.2653,1.45081,-0.0761299,0.17587,-0.0381,-0.14069,-0.05862,0.14949,0.16121,0.01466,0.37225,0.31949,0.32242,-0.37225,0.01466,-0.41329,-0.01172,-13.55,-38.61,-21.17,-176.92,2.76635,-2.19908,8.28,20.44,0.37,-92.38,-6.12002,-1.55066,-9.45,12.82,-3.74,-4.91,-5.35,1.98,2.86,0.37,6.52,11.79,11.21,-11.94,0.81,-3.44,-0.51,0.0335671,-0.198258,-0.176132,-0.720865,0.601333,0.141446,-0.0492316,0.226711,0.149642,-0.702897,-0.0555583,0.216075,-0.143334,0.0362992,-0.00510759,-0.0946317,-0.0471995,0.0336302,0.0225011,0.0300039,-0.00226819,0.00254243,0.00728496,-0.126395,-0.00476113,-0.00780045,-0.0752731,25.6234,-43.7627,-4.22295,-220.863,15.6955,4.32724,-6.64206,67.8085,97.7119,-189.586,2.58018,6.04841,-41.5316,-2.53001,-0.910201,-5.80161,-6.85238,2.7283,1.67777,1.67712,-6.39493,-0.147004,-1.23567,-11.6393,-1.28727,-0.586487,-4.45935,0.0208333,
-0.00902581,-0.0116084,-0.0257483,-0.032391,0.0461491,0.0167026,-0.00834894,0.00131559,-0.111858,-0.0433773,-0.0175654,0.0239815,-0.00593472,0.0635276,0.00722241,-0.0185943,0.0674953,-0.0130873,0.000521421,0.00894833,0.0683622,-0.00360727,0.0146704,0.0706956,0.0165713,0.0021137,-0.0194579,-0.266455,-0.466318,-1.90523,0,4.65566,0.838658,-0.399682,-0.279773,-6.48841,-1.07676,-1.2653,1.45081,-0.0761299,0.17587,-0.0381,-0.14069,-0.05862,0.14949,0.16121,0.01466,0.37225,0.31949,0.32242,-0.37225,0.01466,-0.41329,-0.01172,-13.55,-38.61,-21.17,-176.92,2.76635,-2.19908,8.28,20.44,0.37,-92.38,-6.12002,-1.55066,-9.45,12.82,-3.74,-4.91,-5.35,1.98,2.86,0.37,6.52,11.79,11.21,-11.94,0.81,-3.44,-0.51,0.0335671,-0.198258,-0.176132,-0.720865,0.601333,0.141446,-0.0492316,0.226711,0.149642,-0.702897,-0.0555583,0.216075,-0.143334,0.0362992,-0.00510759,-0.0946317,-0.0471995,0.0336302,0.0225011,0.0300039,-0.00226819,0.00254243,0.00728496,-0.126395,-0.00476113,-0.00780045,-0.0752731,25.6234,-43.7627,-4.22295,-220.863,15.6955,4.32724,-6.64206,67.8085,97.7119,-189.586,2.58018,6.04841,-41.5316,-2.53001,-0.910201,-5.80161,-6.85238,2.7283,1.67777,1.67712,-6.39493,-0.147004,-1.23567,-11.6393,-1.28727,-0.586487,-4.45935,0.0208333,
-0.00902581,-0.0116084,-0.0257483,-0.032391,0.0461491,0.0167026,-0.00834894,0.00131559,-0.111858,-0.0433773,-0.0175654,0.0239815,-0.00593472,0.0635276,0.00722241,-0.0185943,0.0674953,-0.0130873,0.000521421,0.00894833,0.0683622,-0.00360727,0.0146704,0.0706956,0.0165713,0.0021137,-0.0194579,-0.266455,-0.466318,-1.90523,0,4.65566,0.838658,-0.399682,-0.279773,-6.48841,-1.07676,-1.2653,1.45081,-0.0761299,0.17587,-0.0381,-0.14069,-0.05862,0.14949,0.16121,0.01466,0.37225,0.31949,0.32242,-0.37225,0.01466,-0.41329,-0.01172,-13.55,-38.61,-21.17,-176.92,2.76635,-2.19908,8.28,20.44,0.37,-92.38,-6.12002,-1.55066,-9.45,12.82,-3.74,-4.91,-5.35,1.98,2.86,0.37,6.52,11.79,11.21,-11.94,0.81,-3.44,-0.51,0.0335671,-0.198258,-0.176132,-0.720865,0.601333,0.141446,-0.0492316,0.226711,0.149642,-0.702897,-0.0555583,0.216075,-0.143334,0.0362992,-0.00510759,-0.0946317,-0.0471995,0.0336302,0.0225011,0.0300039,-0.00226819,0.00254243,0.00728496,-0.126395,-0.00476113,-0.00780045,-0.0752731,25.6234,-43.7627,-4.22295,-220.863,15.6955,4.32724,-6.64206,67.8085,97.7119,-189.586,2.58018,6.04841,-41.5316,-2.53001,-0.910201,-5.80161,-6.85238,2.7283,1.67777,1.67712,-6.39493,-0.147004,-1.23567,-11.6393,-1.28727,-0.586487,-4.45935,0.0208333,
-0.00902581,-0.0116084,-0.0257483,-0.032391,0.0461491,0.0167026,-0.00834894,0.00131559,-0.111858,-0.0433773,-0.0175654,0.0239815,-0.00593472,0.0635276,0.00722241,-0.0185943,0.0674953,-0.0130873,0.000521421,0.00894833,0.0683622,-0.00360727,0.0146704,0.0706956,0.0165713,0.0021137,-0.0194579,-0.266455,-0.466318,-1.90523,0,4.65566,0.838658,-0.399682,-0.279773,-6.48841,-1.07676,-1.2653,1.45081,-0.0761299,0.17587,-0.0381,-0.14069,-0.05862,0.14949,0.16121,0.01466,0.37225,0.31949,0.32242,-0.37225,0.01466,-0.41329,-0.01172,-13.55,-38.61,-21.17,-176.92,2.76635,-2.19908,8.28,20.44,0.37,-92.38,-6.12002,-1.55066,-9.45,12.82,-3.74,-4.91,-5.35,1.98,2.86,0.37,6.52,11.79,11.21,-11.94,0.81,-3.44,-0.51,0.0335671,-0.198258,-0.176132,-0.720865,0.601333,0.141446,-0.0492316,0.226711,0.149642,-0.702897,-0.0555583,0.216075,-0.143334,0.0362992,-0.00510759,-0.0946317,-0.0471995,0.0336302,0.0225011,0.0300039,-0.00226819,0.00254243,0.00728496,-0.126395,-0.00476113,-0.00780045,-0.0752731,25.6234,-43.7627,-4.22295,-220.863,15.6955,4.32724,-6.64206,67.8085,97.7119,-189.586,2.58018,6.04841,-41.5316,-2.53001,-0.910201,-5.80161,-6.85238,2.7283,1.67777,1.67712,-6.39493,-0.147004,-1.23567,-11.6393,-1.28727,-0.586487,-4.45935,0.0208333,
-0.00902581,-0.0116084,-0.0257483,-0.032391,0.0461491,0.0167026,-0.00834894,0.00131559,-0.111858,-0.0433773,-0.0175654,0.0239815,-0.00593472,0.0635276,0.00722241,-0.0185943,0.0674953,-0.0130873,0.000521421,0.00894833,0.0683622,-0.00360727,0.0146704,0.0706956,0.0165713,0.0021137,-0.0194579,-0.266455,-0.466318,-1.90523,0,4.65566,0.838658,-0.399682,-0.279773,-6.48841,-1.07676,-1.2653,1.45081,-0.0761299,0.17587,-0.0381,-0.14069,-0.05862,0.14949,0.16121,0.01466,0.37225,0.31949,0.32242,-0.37225,0.01466,-0.41329,-0.01172,-13.55,-38.61,-21.17,-176.92,2.76635,-2.19908,8.28,20.44,0.37,-92.38,-6.12002,-1.55066,-9.45,12.82,-3.74,-4.91,-5.35,1.98,2.86,0.37,6.52,11.79,11.21,-11.94,0.81,-3.44,-0.51,0.0335671,-0.198258,-0.176132,-0.720865,0.601333,0.141446,-0.0492316,0.226711,0.149642,-0.702897,-0.0555583,0.216075,-0.143334,0.0362992,-0.00510759,-0.0946317,-0.0471995,0.0336302,0.0225011,0.0300039,-0.00226819,0.00254243,0.00728496,-0.126395,-0.00476113,-0.00780045,-0.0752731,25.6234,-43.7627,-4.22295,-220.863,15.6955,4.32724,-6.64206,67.8085,97.7119,-189.586,2.58018,6.04841,-41.5316,-2.53001,-0.910201,-5.80161,-6.85238,2.7283,1.67777,1.67712,-6.39493,-0.147004,-1.23567,-11.6393,-1.28727,-0.586487,-4.45935,0.0208333,
-0.00902581,-0.0116084,-0.0257483,-0.032391,0.0461491,0.0167026,-0.00834894,0.00131559,-0.111858,-0.0433773,-0.0175654,0.0239815,-0.00593472,0.0635276,0.00722241,-0.0185943,0.0674953,-0.0130873,0.000521421,0.00894833,0.0683622,-0.00360727,0.0146704,0.0706956,0.0165713,0.0021137,-0.0194579,-0.266455,-0.466318,-1.90523,0,4.65566,0.838658,-0.399682,-0.279773,-6.48841,-1.07676,-1.2653,1.45081,-0.0761299,0.17587,-0.0381,-0.14069,-0.05862,0.14949,0.16121,0.01466,0.37225,0.31949,0.32242,-0.37225,0.01466,-0.41329,-0.01172,-13.55,-38.61,-21.17,-176.92,2.76635,-2.19908,8.28,20.44,0.37,-92.38,-6.12002,-1.55066,-9.45,12.82,-3.74,-4.91,-5.35,1.98,2.86,0.37,6.52,11.79,11.21,-11.94,0.81,-3.44,-0.51,0.0335671,-0.198258,-0.176132,-0.720865,0.601333,0.141446,-0.0492316,0.226711,0.149642,-0.702897,-0.0555583,0.216075,-0.143334,0.0362992,-0.00510759,-0.0946317,-0.0471995,0.0336302,0.0225011,0.0300039,-0.00226819,0.00254243,0.00728496,-0.126395,-0.00476113,-0.00780045,-0.0752731,25.6234,-43.7627,-4.22295,-220.863,15.6955,4.32724,-6.64206,67.8085,97.7119,-189.586,2.58018,6.04841,-41.5316,-2.53001,-0.910201,-5.80161,-6.85238,2.7283,1.67777,1.67712,-6.39493,-0.147004,-1.23567,-11.6393,-1.28727,-0.586487,-4.45935,0.0208333,
-0.00902581,-0.0116084,-0.0257483,-0.032391,0.0461491,0.0167026,-0.00834894,0.00131559,-0.111858,-0.0433773,-0.0175654,0.0239815,-0.00593472,0.0635276,0.00722241,-0.0185943,0.0674953,-0.0130873,0.000521421,0.00894833,0.0683622,-0.00360727,0.0146704,0.0706956,0.0165713,0.0021137,-0.0194579,-0.266455,-0.466318,-1.90523,0,4.65566,0.838658,-0.399682,-0.279773,-6.48841,-1.07676,-1.2653,1.45081,-0.0761299,0.17587,-0.0381,-0.14069,-0.05862,0.14949,0.16121,0.01466,0.37225,0.31949,0.32242,-0.37225,0.01466,-0.41329,-0.01172,-13.55,-38.61,-21.17,-176.92,2.76635,-2.19908,8.28,20.44,0.37,-92.38,-6.12002,-1.55066,-9.45,12.82,-3.74,-4.91,-5.35,1.98,2.86,0.37,6.52,11.79,11.21,-11.94,0.81,-3.44,-0.51,0.0335671,-0.198258,-0.176132,-0.720865,0.601333,0.141446,-0.0492316,0.226711,0.149642,-0.702897,-0.0555583,0.216075,-0.143334,0.0362992,-0.00510759,-0.0946317,-0.0471995,0.0336302,0.0225011,0.0300039,-0.00226819,0.00254243,0.00728496,-0.126395,-0.00476113,-0.00780045,-0.0752731,25.6234,-43.7627,-4.22295,-220.863,15.6955,4.32724,-6.64206,67.8085,97.7119,-189.586,2.58018,6.04841,-41.5316,-2.53001,-0.910201,-5.80161,-6.85238,2.7283,1.67777,1.67712,-6.39493,-0.147004,-1.23567,-11.6393,-1.28727,-0.586487,-4.45935,0.0208333,
-0.00902581,-0.0116084,-0.0257483,-0.032391,0.0461491,0.0167026,-0.00834894,0.00131559,-0.111858,-0.0433773,-0.0175654,0.0239815,-0.00593472,0.0635276,0.00722241,-0.0185943,0.0674953,-0.0130873,0.000521421,0.00894833,0.0683622,-0.00360727,0.0146704,0.0706956,0.0165713,0.0021137,-0.0194579,-0.266455,-0.466318,-1.90523,0,4.65566,0.838658,-0.399682,-0.279773,-6.48841,-1.07676,-1.2653,1.45081,-0.0761299,0.17587,-0.0381,-0.14069,-0.05862,0.14949,0.16121,0.01466,0.37225,0.31949,0.32242,-0.37225,0.01466,-0.41329,-0.01172,-13.55,-38.61,-21.17,-176.92,2.76635,-2.19908,8.28,20.44,0.37,-92.38,-6.12002,-1.55066,-9.45,12.82,-3.74,-4.91,-5.35,1.98,2.86,0.37,6.52,11.79,11.21,-11.94,0.81,-3.44,-0.51,0.0335671,-0.198258,-0.176132,-0.720865,0.601333,0.141446,-0.0492316,0.226711,0.149642,-0.702897,-0.0555583,0.216075,-0.143334,0.0362992,-0.00510759,-0.0946317,-0.0471995,0.0336302,0.0225011,0.0300039,-0.00226819,0.00254243,0.00728496,-0.126395,-0.00476113,-0.00780045,-0.0752731,25.6234,-43.7627,-4.22295,-220.863,15.6955,4.32724,-6.64206,67.8085,97.7119,-189.586,2.58018,6.04841,-41.5316,-2.53001,-0.910201,-5.80161,-6.85238,2.7283,1.67777,1.67712,-6.39493,-0.147004,-1.23567,-11.6393,-1.28727,-0.586487,-4.45935,0.0208333,
-0.00902581,-0.0116084,-0.0257483,-0.032391,0.0461491,0.0167026,-0.00834894,0.00131559,-0.111858,-0.0433773,-0.0175654,0.0239815,-0.00593472,0.0635276,0.00722241,-0.0185943,0.0674953,-0.0130873,0.000521421,0.00894833,0.0683622,-0.00360727,0.0146704,0.0706956,0.0165713,0.0021137,-0.0194579,-0.266455,-0.466318,-1.90523,0,4.65566,0.838658,-0.399682,-0.279773,-6.48841,-1.07676,-1.2653,1.45081,-0.0761299,0.17587,-0.0381,-0.14069,-0.05862,0.14949,0.16121,0.01466,0.37225,0.31949,0.32242,-0.37225,0.01466,-0.41329,-0.01172,-13.55,-38.61,-21.17,-176.92,2.76635,-2.19908,8.28,20.44,0.37,-92.38,-6.12002,-1.55066,-9.45,12.82,-3.74,-4.91,-5.35,1.98,2.86,0.37,6.52,11.79,11.21,-11.94,0.81,-3.44,-0.51,0.0335671,-0.198258,-0.176132,-0.720865,0.601333,0.141446,-0.0492316,0.226711,0.149642,-0.702897,-0.0555583,0.216075,-0.143334,0.0362992,-0.00510759,-0.0946317,-0.0471995,0.0336302,0.0225011,0.0300039,-0.00226819,0.00254243,0.00728496,-0.126395,-0.00476113,-0.00780045,-0.0752731,25.6234,-43.7627,-4.22295,-220.863,15.6955,4.32724,-6.64206,67.8085,97.7119,-189.586,2.58018,6.04841,-41.5316,-2.53001,-0.910201,-5.80161,-6.85238,2.7283,1.67777,1.67712,-6.39493,-0.147004,-1.23567,-11.6393,-1.28727,-0.586487,-4.45935,0.025,
-0.00902581,-0.0116084,-0.0257483,-0.032391,0.0461491,0.0167026,-0.00834894,0.00131559,-0.111858,-0.0433773,-0.0175654,0.0239815,-0.00593472,0.0635276,0.00722241,-0.0185943,0.0674953,-0.0130873,0.000521421,0.00894833,0.0683622,-0.00360727,0.0146704,0.0706956,0.0165713,0.0021137,-0.0194579,-0.266455,-0.466318,-1.90523,0,4.65566,0.838658,-0.399682,-0.279773,-6.48841,-1.07676,-1.2653,1.45081,-0.0761299,0.17587,-0.0381,-0.14069,-0.05862,0.14949,0.16121,0.01466,0.37225,0.31949,0.32242,-0.37225,0.01466,-0.41329,-0.01172,-13.55,-38.61,-21.17,-176.92,2.76635,-2.19908,8.28,20.44,0.37,-92.38,-6.12002,-1.55066,-9.45,12.82,-3.74,-4.91,-5.35,1.98,2.86,0.37,6.52,11.79,11.21,-11.94,0.81,-3.44,-0.51,0.0537216,-0.200788,-0.103758,-0.760877,0.395374,0.143943,-0.0566048,0.231272,0.0885316,-0.673745,-0.241159,0.261691,-0.111215,0.0463768,-0.0203094,-0.0848082,0.00573196,0.0329723,0.0322403,0.0338512,0.00954109,0.0338987,0.0187681,-0.107906,-0.00573137,-0.00638003,-0.0623295,34.2946,-44.4681,6.26338,-233.698,3.20619,4.47863,-9.81432,69.0802,88.8576,-180.235,-8.67465,8.81455,-31.2535,-1.72381,-2.12635,-5.01574,-3.67649,2.68883,2.4569,1.9849,-5.45019,2.36149,-0.31702,-10.53,-1.34549,-0.472853,-3.42387,0.025,
-0.00902581,-0.0116084,-0.0257483,-0.032391,0.0461491,0.0167026,-0.00834894,0.00131559,-0.111858,-0.0433773,-0.0175654,0.0239815,-0.00593472,0.0635276,0.00722241,-0.0185943,0.0674953,-0.0130873,0.000521421,0.00894833,0.0683622,-0.00360727,0.0146704,0.0706956,0.0165713,0.0021137,-0.0194579,-0.266455,-0.466318,-1.90523,0,4.65566,0.838658,-0.399682,-0.279773,-6.48841,-1.07676,-1.2653,1.45081,-0.0761299,0.17587,-0.0381,-0.14069,-0.05862,0.14949,0.16121,0.01466,0.37225,0.31949,0.32242,-0.37225,0.01466,-0.41329,-0.01172,-13.55,-38.61,-21.17,-176.92,2.76635,-2.19908,8.28,20.44,0.37,-92.38,-6.12002,-1.55066,-9.45,12.82,-3.74,-4.91,-5.35,1.98,2.86,0.37,6.52,11.79,11.21,-11.94,0.81,-3.44,-0.51,0.0537216,-0.200788,-0.103758,-0.760877,0.395374,0.143943,-0.0566048,0.231272,0.0885316,-0.673745,-0.241159,0.261691,-0.111215,0.0463768,-0.0203094,-0.0848082,0.00573196,0.0329723,0.0322403,0.0338512,0.00954109,0.0338987,0.0187681,-0.107906,-0.00573137,-0.00638003,-0.0623295,34.2946,-44.4681,6.26338,-233.698,3.20619,4.47863,-9.81432,69.0802,88.8576,-180.235,-8.67465,8.81455,-31.2535,-1.72381,-2.12635,-5.01574,-3.67649,2.68883,2.4569,1.9849,-5.45019,2.36149,-0.31702,-10.53,-1.34549,-0.472853,-3.42387,0.025,
-0.00902581,-0.0116084,-0.0257483,-0.032391,0.0461491,0.0167026,-0.00834894,0.00131559,-0.111858,-0.0433773,-0.0175654,0.0239815,-0.00593472,0.0635276,0.00722241,-0.0185943,0.0674953,-0.0130873,0.000521421,0.00894833,0.0683622,-0.00360727,0.0146704,0.0706956,0.0165713,0.0021137,-0.0194579,-0.266455,-0.466318,-1.90523,0,4.65566,0.838658,-0.399682,-0.279773,-6.48841,-1.07676,-1.2653,1.45081,-0.0761299,0.17587,-0.0381,-0.14069,-0.05862,0.14949,0.16121,0.01466,0.37225,0.31949,0.32242,-0.37225,0.01466,-0.41329,-0.01172,-13.55,-38.61,-21.17,-176.92,2.76635,-2.19908,8.28,20.44,0.37,-92.38,-6.12002,-1.55066,-9.45,12.82,-3.74,-4.91,-5.35,1.98,2.86,0.37,6.52,11.79,11.21,-11.94,0.81,-3.44,-0.51,0.0537216,-0.200788,-0.103758,-0.760877,0.395374,0.143943,-0.0566048,0.231272,0.0885316,-0.673745,-0.241159,0.261691,-0.111215,0.0463768,-0.0203094,-0.0848082,0.00573196,0.0329723,0.0322403,0.0338512,0.00954109,0.0338987,0.0187681,-0.107906,-0.00573137,-0.00638003,-0.0623295,34.2946,-44.4681,6.26338,-233.698,3.20619,4.47863,-9.81432,69.0802,88.8576,-180.235,-8.67465,8.81455,-31.2535,-1.72381,-2.12635,-5.01574,-3.67649,2.68883,2.4569,1.9849,-5.45019,2.36149,-0.31702,-10.53,-1.34549,-0.472853,-3.42387,0.025,
-0.00902581,-0.0116084,-0.0257483,-0.032391,0.0461491,0.0167026,-0.00834894,0.00131559,-0.111858,-0.0433773,-0.0175654,0.0239815,-0.00593472,0.0635276,0.00722241,-0.0185943,0.0674953,-0.0130873,0.000521421,0.00894833,0.0683622,-0.00360727,0.0146704,0.0706956,0.0165713,0.0021137,-0.0194579,-0.266455,-0.466318,-1.90523,0,4.65566,0.838658,-0.399682,-0.279773,-6.48841,-1.07676,-1.2653,1.45081,-0.0761299,0.17587,-0.0381,-0.14069,-0.05862,0.14949,0.16121,0.01466,0.37225,0.31949,0.32242,-0.37225,0.01466,-0.41329,-0.01172,-13.55,-38.61,-21.17,-176.92,2.76635,-2.19908,8.28,20.44,0.37,-92.38,-6.12002,-1.55066,-9.45,12.82,-3.74,-4.91,-5.35,1.98,2.86,0.37,6.52,11.79,11.21,-11.94,0.81,-3.44,-0.51,0.0537216,-0.200788,-0.103758,-0.760877,0.395374,0.143943,-0.0566048,0.231272,0.0885316,-0.673745,-0.241159,0.261691,-0.111215,0.0463768,-0.0203094,-0.0848082,0.00573196,0.0329723,0.0322403,0.0338512,0.00954109,0.0338987,0.0187681,-0.107906,-0.00573137,-0.00638003,-0.0623295,34.2946,-44.4681,6.26338,-233.698,3.20619,4.47863,-9.81432,69.0802,88.8576,-180.235,-8.67465,8.81455,-31.2535,-1.72381,-2.12635,-5.01574,-3.67649,2.68883,2.4569,1.9849,-5.45019,2.36149,-0.31702,-10.53,-1.34549,-0.472853,-3.42387,0.025,
-0.00902581,-0.0116084,-0.0257483,-0.032391,0.0461491,0.0167026,-0.00834894,0.00131559,-0.111858,-0.0433773,-0.0175654,0.0239815,-0.00593472,0.0635276,0.00722241,-0.0185943,0.0674953,-0.0130873,0.000521421,0.00894833,0.0683622,-0.00360727,0.0146704,0.0706956,0.0165713,0.0021137,-0.0194579,-0.266455,-0.466318,-1.90523,0,4.65566,0.838658,-0.399682,-0.279773,-6.48841,-1.07676,-1.2653,1.45081,-0.0761299,0.17587,-0.0381,-0.14069,-0.05862,0.14949,0.16121,0.01466,0.37225,0.31949,0.32242,-0.37225,0.01466,-0.41329,-0.01172,-13.55,-38.61,-21.17,-176.92,2.76635,-2.19908,8.28,20.44,0.37,-92.38,-6.12002,-1.55066,-9.45,12.82,-3.74,-4.91,-5.35,1.98,2.86,0.37,6.52,11.79,11.21,-11.94,0.81,-3.44,-0.51,0.0537216,-0.200788,-0.103758,-0.760877,0.395374,0.143943,-0.0566048,0.231272,0.0885316,-0.673745,-0.241159,0.261691,-0.111215,0.0463768,-0.0203094,-0.0848082,0.00573196,0.0329723,0.0322403,0.0338512,0.00954109,0.0338987,0.0187681,-0.107906,-0.00573137,-0.00638003,-0.0623295,34.2946,-44.4681,6.26338,-233.698,3.20619,4.47863,-9.81432,69.0802,88.8576,-180.235,-8.67465,8.81455,-31.2535,-1.72381,-2.12635,-5.01574,-3.67649,2.68883,2.4569,1.9849,-5.45019,2.36149,-0.31702,-10.53,-1.34549,-0.472853,-3.42387,0.025,
-0.00902581,-0.0116084,-0.0257483,-0.032391,0.0461491,0.0167026,-0.00834894,0.00131559,-0.111858,-0.0433773,-0.0175654,0.0239815,-0.00593472,0.0635276,0.00722241,-0.0185943,0.0674953,-0.0130873,0.000521421,0.00894833,0.0683622,-0.00360727,0.0146704,0.0706956,0.0165713,0.0021137,-0.0194579,-0.266455,-0.466318,-1.90523,0,4.65566,0.838658,-0.399682,-0.279773,-6.48841,-1.07676,-1.2653,1.45081,-0.0761299,0.17587,-0.0381,-0.14069,-0.05862,0.14949,0.16121,0.01466,0.37225,0.31949,0.32242,-0.37225,0.01466,-0.41329,-0.01172,-13.55,-38.61,-21.17,-176.92,2.76635,-2.19908,8.28,20.44,0.37,-92.38,-6.12002,-1.55066,-9.45,12.82,-3.74,-4.91,-5.35,1.98,2.86,0.37,6.52,11.79,11.21,-11.94,0.81,-3.44,-0.51,0.0537216,-0.200788,-0.103758,-0.760877,0.395374,0.143943,-0.0566048,0.231272,0.0885316,-0.673745,-0.241159,0.261691,-0.111215,0.0463768,-0.0203094,-0.0848082,0.00573196,0.0329723,0.0322403,0.0338512,0.00954109,0.0338987,0.0187681,-0.107906,-0.00573137,-0.00638003,-0.0623295,34.2946,-44.4681,6.26338,-233.698,3.20619,4.47863,-9.81432,69.0802,88.8576,-180.235,-8.67465,8.81455,-31.2535,-1.72381,-2.12635,-5.01574,-3.67649,2.68883,2.4569,1.9849,-5.45019,2.36149,-0.31702,-10.53,-1.34549,-0.472853,-3.42387,0.025,
-0.00902581,-0.0116084,-0.0257483,-0.032391,0.0461491,0.0167026,-0.00834894,0.00131559,-0.111858,-0.0433773,-0.0175654,0.0239815,-0.00593472,0.0635276,0.00722241,-0.0185943,0.0674953,-0.0130873,0.000521421,0.00894833,0.0683622,-0.00360727,0.0146704,0.0706956,0.0165713,0.0021137,-0.0194579,-0.266455,-0.466318,-1.90523,0,4.65566,0.838658,-0.399682,-0.279773,-6.48841,-1.07676,-1.2653,1.45081,-0.0761299,0.17587,-0.0381,-0.14069,-0.05862,0.14949,0.16121,0.01466,0.37225,0.31949,0.32242,-0.37225,0.01466,-0.41329,-0.01172,-13.55,-38.61,-21.17,-176.92,2.76635,-2.19908,8.28,20.44,0.37,-92.38,-6.12002,-1.55066,-9.45,12.82,-3.74,-4.91,-5.35,1.98,2.86,0.37,6.52,11.79,11.21,-11.94,0.81,-3.44,-0.51,0.0537216,-0.200788,-0.103758,-0.760877,0.395374,0.143943,-0.0566048,0.231272,0.0885316,-0.673745,-0.241159,0.261691,-0.111215,0.0463768,-0.0203094,-0.0848082,0.00573196,0.0329723,0.0322403,0.0338512,0.00954109,0.0338987,0.0187681,-0.107906,-0.00573137,-0.00638003,-0.0623295,34.2946,-44.4681,6.26338,-233.698,3.20619,4.47863,-9.81432,69.0802,88.8576,-180.235,-8.67465,8.81455,-31.2535,-1.72381,-2.12635,-5.01574,-3.67649,2.68883,2.4569,1.9849,-5.45019,2.36149,-0.31702,-10.53,-1.34549,-0.472853,-3.42387,0.025,
-0.00902581,-0.0116084,-0.0257483,-0.032391,0.0461491,0.0167026,-0.00834894,0.00131559,-0.111858,-0.0433773,-0.0175654,0.0239815,-0.00593472,0.0635276,0.00722241,-0.0185943,0.0674953,-0.0130873,0.000521421,0.00894833,0.0683622,-0.00360727,0.0146704,0.0706956,0.0165713,0.0021137,-0.0194579,-0.266455,-0.466318,-1.90523,0,4.65566,0.838658,-0.399682,-0.279773,-6.48841,-1.07676,-1.2653,1.45081,-0.0761299,0.17587,-0.0381,-0.14069,-0.05862,0.14949,0.16121,0.01466,0.37225,0.31949,0.32242,-0.37225,0.01466,-0.41329,-0.01172,-13.55,-38.61,-21.17,-176.92,2.76635,-2.19908,8.28,20.44,0.37,-92.38,-6.12002,-1.55066,-9.45,12.82,-3.74,-4.91,-5.35,1.98,2.86,0.37,6.52,11.79,11.21,-11.94,0.81,-3.44,-0.51,0.0537216,-0.200788,-0.103758,-0.760877,0.395374,0.143943,-0.0566048,0.231272,0.0885316,-0.673745,-0.241159,0.261691,-0.111215,0.0463768,-0.0203094,-0.0848082,0.00573196,0.0329723,0.0322403,0.0338512,0.00954109,0.0338987,0.0187681,-0.107906,-0.00573137,-0.00638003,-0.0623295,34.2946,-44.4681,6.26338,-233.698,3.20619,4.47863,-9.81432,69.0802,88.8576,-180.235,-8.67465,8.81455,-31.2535,-1.72381,-2.12635,-5.01574,-3.67649,2.68883,2.4569,1.9849,-5.45019,2.36149,-0.31702,-10.53,-1.34549,-0.472853,-3.42387,0.025,
-0.00902581,-0.0116084,-0.0257483,-0.032391,0.0461491,0.0167026,-0.00834894,0.00131559,-0.111858,-0.0433773,-0.0175654,0.0239815,-0.00593472,0.0635276,0.00722241,-0.0185943,0.0674953,-0.0130873,0.000521421,0.00894833,0.0683622,-0.00360727,0.0146704,0.0706956,0.0165713,0.0021137,-0.0194579,-0.266455,-0.466318,-1.90523,0,4.65566,0.838658,-0.399682,-0.279773,-6.48841,-1.07676,-1.2653,1.45081,-0.0761299,0.17587,-0.0381,-0.14069,-0.05862,0.14949,0.16121,0.01466,0.37225,0.31949,0.32242,-0.37225,0.01466,-0.41329,-0.01172,-13.55,-38.61,-21.17,-176.92,2.76635,-2.19908,8.28,20.44,0.37,-92.38,-6.12002,-1.55066,-9.45,12.82,-3.74,-4.91,-5.35,1.98,2.86,0.37,6.52,11.79,11.21,-11.94,0.81,-3.44,-0.51,0.0537216,-0.200788,-0.103758,-0.760877,0.395374,0.143943,-0.0566048,0.231272,0.0885316,-0.673745,-0.241159,0.261691,-0.111215,0.0463768,-0.0203094,-0.0848082,0.00573196,0.0329723,0.0322403,0.0338512,0.00954109,0.0338987,0.0187681,-0.107906,-0.00573137,-0.00638003,-0.0623295,34.2946,-44.4681,6.26338,-233.698,3.20619,4.47863,-9.81432,69.0802,88.8576,-180.235,-8.67465,8.81455,-31.2535,-1.72381,-2.12635,-5.01574,-3.67649,2.68883,2.4569,1.9849,-5.45019,2.36149,-0.31702,-10.53,-1.34549,-0.472853,-3.42387,0.025,
-0.00902581,-0.0116084,-0.0257483,-0.032391,0.0461491,0.0167026,-0.00834894,0.00131559,-0.111858,-0.0433773,-0.0175654,0.0239815,-0.00593472,0.0635276,0.00722241,-0.0185943,0.0674953,-0.0130873,0.000521421,0.00894833,0.0683622,-0.00360727,0.0146704,0.0706956,0.0165713,0.0021137,-0.0194579,-0.266455,-0.466318,-1.90523,0,4.65566,0.838658,-0.399682,-0.279773,-6.48841,-1.07676,-1.2653,1.45081,-0.0761299,0.17587,-0.0381,-0.14069,-0.05862,0.14949,0.16121,0.01466,0.37225,0.31949,0.32242,-0.37225,0.01466,-0.41329,-0.01172,-13.55,-38.61,-21.17,-176.92,2.76635,-2.19908,8.28,20.44,0.37,-92.38,-6.12002,-1.55066,-9.45,12.82,-3.74,-4.91,-5.35,1.98,2.86,0.37,6.52,11.79,11.21,-11.94,0.81,-3.44,-0.51,0.000287255,-0.179816,-0.0505747,-0.821735,0.206319,0.057294,-0.00574332,0.204509,0.0644553,-0.702333,-0.362743,0.209295,-0.0643315,0.0362674,-0.0419622,-0.0684302,0.0275969,0.0384953,0.0292003,0.0339044,-0.0418756,0.022416,0.0187323,-0.143179,-0.00262249,-0.0160279,-0.0740591,11.305,-38.6208,13.9691,-253.222,-8.25814,-0.775759,12.0683,61.6184,85.3692,-189.406,-16.0475,5.6373,-16.2508,-2.53256,-3.85857,-3.7055,-2.3646,3.02021,2.2137,1.98916,-9.56352,1.44288,-0.319884,-12.6463,-1.15896,-1.24468,-4.36223,0.0291667,
-0.00902581,-0.0116084,-0.0257483,-0.032391,0.0461491,0.0167026,-0.00834894,0.00131559,-0.111858,-0.0433773,-0.0175654,0.0239815,-0.00593472,0.0635276,0.00722241,-0.0185943,0.0674953,-0.0130873,0.000521421,0.00894833,0.0683622,-0.00360727,0.0146704,0.0706956,0.0165713,0.0021137,-0.0194579,-0.266455,-0.466318,-1.90523,0,4.65566,0.838658,-0.399682,-0.279773,-6.48841,-1.07676,-1.2653,1.45081,-0.0761299,0.17587,-0.0381,-0.14069,-0.05862,0.14949,0.16121,0.01466,0.37225,0.31949,0.32242,-0.37225,0.01466,-0.41329,-0.01172,-13.55,-38.61,-21.17,-176.92,2.76635,-2.19908,8.28,20.44,0.37,-92.38,-6.12002,-1.55066,-9.45,12.82,-3.74,-4.91,-5.35,1.98,2.86,0.37,6.52,11.79,11.21,-11.94,0.81,-3.44,-0.51,0.000287255,-0.179816,-0.0505747,-0.821735,0.206319,0.057294,-0.00574332,0.204509,0.0644553,-0.702333,-0.362743,0.209295,-0.0643315,0.0362674,-0.0419622,-0.0684302,0.0275969,0.0384953,0.0292003,0.0339044,-0.0418756,0.022416,0.0187323,-0.143179,-0.00262249,-0.0160279,-0.0740591,11.305,-38.6208,13.9691,-253.222,-8.25814,-0.775759,12.0683,61.6184,85.3692,-189.406,-16.0475,5.6373,-16.2508,-2.53256,-3.85857,-3.7055,-2.3646,3.02021,2.2137,1.98916,-9.56352,1.44288,-0.319884,-12.6463,-1.15896,-1.24468,-4.36223,0.0291667,
-0.00902581,-0.0116084,-0.0257483,-0.032391,0.0461491,0.0167026,-0.00834894,0.00131559,-0.111858,-0.0433773,-0.0175654,0.0239815,-0.00593472,0.0635276,0.00722241,-0.0185943,0.0674953,-0.0130873,0.000521421,0.00894833,0.0683622,-0.00360727,0.0146704,0.0706956,0.0165713,0.0021137,-0.0194579,-0.266455,-0.466318,-1.90523,0,4.65566,0.838658,-0.399682,-0.279773,-6.48841,-1.07676,-1.2653,1.45081,-0.0761299,0.17587,-0.0381,-0.14069,-0.05862,0.14949,0.16121,0.01466,0.37225,0.31949,0.32242,-0.37225,0.01466,-0.41329,-0.01172,-13.55,-38.61,-21.17,-176.92,2.76635,-2.19908,8.28,20.44,0.37,-92.38,-6.12002,-1.55066,-9.45,12.82,-3.74,-4.91,-5.35,1.98,2.86,0.37,6.52,11.79,11.21,-11.94,0.81,-3.44,-0.51,0.000287255,-0.179816,-0.0505747,-0.821735,0.206319,0.057294,-0.00574332,0.204509,0.0644553,-0.702333,-0.362743,0.209295,-0.0643315,0.0362674,-0.0419622,-0.0684302,0.0275969,0.0384953,0.0292003,0.0339044,-0.0418756,0.022416,0.0187323,-0.143179,-0.00262249,-0.0160279,-0.0740591,11.305,-38.6208,13.9691,-253.222,-8.25814,-0.775759,12.0683,61.6184,85.3692,-189.406,-16.0475,5.6373,-16.2508,-2.53256,-3.85857,-3.7055,-2.3646,3.02021,2.2137,1.98916,-9.56352,1.44288,-0.319884,-12.6463,-1.15896,-1.24468,-4.36223,0.0291667,
-0.00902581,-0.0116084,-0.0257483,-0.032391,0.0461491,0.0167026,-0.00834894,0.00131559,-0.111858,-0.0433773,-0.0175654,0.0239815,-0.00593472,0.0635276,0.00722241,-0.0185943,0.0674953,-0.0130873,0.000521421,0.00894833,0.0683622,-0.00360727,0.0146704,0.0706956,0.0165713,0.0021137,-0.0194579,-0.266455,-0.466318,-1.90523,0,4.65566,0.838658,-0.399682,-0.279773,-6.48841,-1.07676,-1.2653,1.45081,-0.0761299,0.17587,-0.0381,-0.14069,-0.05862,0.14949,0.16121,0.01466,0.37225,0.31949,0.32242,-0.37225,0.01466,-0.41329,-0.01172,-13.55,-38.61,-21.17,-176.92,2.76635,-2.19908,8.28,20.44,0.37,-92.38,-6.12002,-1.55066,-9.45,12.82,-3.74,-4.91,-5.35,1.98,2.86,0.37,6.52,11.79,11.21,-11.94,0.81,-3.44,-0.51,0.000287255,-0.179816,-0.0505747,-0.821735,0.206319,0.057294,-0.00574332,0.204509,0.0644553,-0.702333,-0.362743,0.209295,-0.0643315,0.0362674,-0.0419622,-0.0684302,0.0275969,0.0384953,0.0292003,0.0339044,-0.0418756,0.022416,0.0187323,-0.143179,-0.00262249,-0.0160279,-0.0740591,11.305,-38.6208,13.9691,-253.222,-8.25814,-0.775759,12.0683,61.6184,85.3692,-189.406,-16.0475,5.6373,-16.2508,-2.53256,-3.85857,-3.7055,-2.3646,3.02021,2.2137,1.98916,-9.56352,1.44288,-0.319884,-12.6463,-1.15896,-1.24468,-4.36223,0.0291667,
-0.00902581,-0.0116084,-0.0257483,-0.032391,0.0461491,0.0167026,-0.00834894,0.00131559,-0.111858,-0.0433773,-0.0175654,0.0239815,-0.00593472,0.0635276,0.00722241,-0.0185943,0.0674953,-0.0130873,0.000521421,0.00894833,0.0683622,-0.00360727,0.0146704,0.0706956,0.0165713,0.0021137,-0.0194579,-0.266455,-0.466318,-1.90523,0,4.65566,0.838658,-0.399682,-0.279773,-6.48841,-1.07676,-1.2653,1.45081,-0.0761299,0.17587,-0.0381,-0.14069,-0.05862,0.14949,0.16121,0.01466,0.37225,0.31949,0.32242,-0.37225,0.01466,-0.41329,-0.01172,-13.55,-38.61,-21.17,-176.92,2.76635,-2.19908,8.28,20.44,0.37,-92.38,-6.12002,-1.55066,-9.45,12.82,-3.74,-4.91,-5.35,1.98,2.86,0.37,6.52,11.79,11.21,-11.94,0.81,-3.44,-0.51,0.000287255,-0.179816,-0.0505747,-0.821735,0.206319,0.057294,-0.00574332,0.204509,0.0644553,-0.702333,-0.362743,0.209295,-0.0643315,0.0362674,-0.0419622,-0.0684302,0.0275969,0.0384953,0.0292003,0.0339044,-0.0418756,0.022416,0.0187323,-0.143179,-0.00262249,-0.0160279,-0.0740591,11.305,-38.6208,13.9691,-253.222,-8.25814,-0.775759,12.0683,61.6184,85.3692,-189.406,-16.0475,5.6373,-16.2508,-2.53256,-3.85857,-3.7055,-2.3646,3.02021,2.2137,1.98916,-9.56352,1.44288,-0.319884,-12.6463,-1.15896,-1.24468,-4.36223,0.0291667,
-0.00902581,-0.0116084,-0.0257483,-0.032391,0.0461491,0.0167026,-0.00834894,0.00131559,-0.111858,-0.0433773,-0.0175654,0.0239815,-0.00593472,0.0635276,0.00722241,-0.0185943,0.0674953,-0.0130873,0.000521421,0.00894833,0.0683622,-0.00360727,0.0146704,0.0706956,0.0165713,0.0021137,-0.0194579,-0.266455,-0.466318,-1.90523,0,4.65566,0.838658,-0.399682,-0.279773,-6.48841,-1.07676,-1.2653,1.45081,-0.0761299,0.17587,-0.0381,-0.14069,-0.05862,0.14949,0.16121,0.01466,0.37225,0.31949,0.32242,-0.37225,0.01466,-0.41329,-0.01172,-13.55,-38.61,-21.17,-176.92,2.76635,-2.19908,8.28,20.44,0.37,-92.38,-6.12002,-1.55066,-9.45,12.82,-3.74,-4.91,-5.35,1.98,2.86,0.37,6.52,11.79,11.21,-11.94,0.81,-3.44,-0.51,0.000287255,-0.179816,-0.0505747,-0.821735,0.206319,0.057294,-0.00574332,0.204509,0.0644553,-0.702333,-0.362743,0.209295,-0.0643315,0.0362674,-0.0419622,-0.0684302,0.0275969,0.0384953,0.0292003,0.0339044,-0.0418756,0.022416,0.0187323,-0.143179,-0.00262249,-0.0160279,-0.0740591,11.305,-38.6208,13.9691,-253.222,-8.25814,-0.775759,12.0683,61.6184,85.3692,-189.406,-16.0475,5.6373,-16.2508,-2.53256,-3.85857,-3.7055,-2.3646,3.02021,2.2137,1.98916,-9.56352,1.44288,-0.319884,-12.6463,-1.15896,-1.24468,-4.36223,0.0291667,
-0.00902581,-0.0116084,-0.0257483,-0.032391,0.0461491,0.0167026,-0.00834894,0.00131559,-0.111858,-0.0433773,-0.0175654,0.0239815,-0.00593472,0.0635276,0.00722241,-0.0185943,0.0674953,-0.0130873,0.000521421,0.00894833,0.0683622,-0.00360727,0.0146704,0.0706956,0.0165713,0.0021137,-0.0194579,-0.266455,-0.466318,-1.90523,0,4.65566,0.838658,-0.399682,-0.279773,-6.48841,-1.07676,-1.2653,1.45081,-0.0761299,0.17587,-0.0381,-0.14069,-0.05862,0.14949,0.16121,0.01466,0.37225,0.31949,0.32242,-0.37225,0.01466,-0.41329,-0.01172,-13.55,-38.61,-21.17,-176.92,2.76635,-2.19908,8.28,20.44,0.37,-92.38,-6.12002,-1.55066,-9.45,12.82,-3.74,-4.91,-5.35,1.98,2.86,0.37,6.52,11.79,11.21,-11.94,0.81,-3.44,-0.51,0.000287255,-0.179816,-0.0505747,-0.821735,0.206319,0.057294,-0.00574332,0.204509,0.0644553,-0.702333,-0.362743,0.209295,-0.0643315,0.0362674,-0.0419622,-0.0684302,0.0275969,0.0384953,0.0292003,0.0339044,-0.0418756,0.022416,0.0187323,-0.143179,-0.00262249,-0.0160279,-0.0740591,11.305,-38.6208,13.9691,-253.222,-8.25814,-0.775759,12.0683,61.6184,85.3692,-189.406,-16.0475,5.6373,-16.2508,-2.53256,-3.85857,-3.7055,-2.3646,3.02021,2.2137,1.98916,-9.56352,1.44288,-0.319884,-12.6463,-1.15896,-1.24468,-4.36223,0.0291667,
-0.00902581,-0.0116084,-0.0257483,-0.032391,0.0461491,0.0167026,-0.00834894,0.00131559,-0.111858,-0.0433773,-0.0175654,0.0239815,-0.00593472,0.0635276,0.00722241,-0.0185943,0.0674953,-0.0130873,0.000521421,0.00894833,0.0683622,-0.00360727,0.0146704,0.0706956,0.0165713,0.0021137,-0.0194579,-0.266455,-0.466318,-1.90523,0,4.65566,0.838658,-0.399682,-0.279773,-6.48841,-1.07676,-1.2653,1.45081,-0.0761299,0.17587,-0.0381,-0.14069,-0.05862,0.14949,0.16121,0.01466,0.37225,0.31949,0.32242,-0.37225,0.01466,-0.41329,-0.01172,-13.55,-38.61,-21.17,-176.92,2.76635,-2.19908,8.28,20.44,0.37,-92.38,-6.12002,-1.55066,-9.45,12.82,-3.74,-4.91,-5.35,1.98,2.86,0.37,6.52,11.79,11.21,-11.94,0.81,-3.44,-0.51,0.000287255,-0.179816,-0.0505747,-0.821735,0.206319,0.057294,-0.00574332,0.204509,0.0644553,-0.702333,-0.362743,0.209295,-0.0643315,0.0362674,-0.0419622,-0.0684302,0.0275969,0.0384953,0.0292003,0.0339044,-0.0418756,0.022416,0.0187323,-0.143179,-0.00262249,-0.0160279,-0.0740591,11.305,-38.6208,13.9691,-253.222,-8.25814,-0.775759,12.0683,61.6184,85.3692,-189.406,-16.0475,5.6373,-16.2508,-2.53256,-3.85857,-3.7055,-2.3646,3.02021,2.2137,1.98916,-9.56352,1.44288,-0.319884,-12.6463,-1.15896,-1.24468,-4.36223,0.0291667,
-0.00902581,-0.0116084,-0.0257483,-0.032391,0.0461491,0.0167026,-0.00834894,0.00131559,-0.111858,-0.0433773,-0.0175654,0.0239815,-0.00593472,0.0635276,0.00722241,-0.0185943,0.0674953,-0.0130873,0.000521421,0.00894833,0.0683622,-0.00360727,0.0146704,0.0706956,0.0165713,0.0021137,-0.0194579,-0.266455,-0.466318,-1.90523,0,4.65566,0.838658,-0.399682,-0.279773,-6.48841,-1.07676,-1.2653,1.45081,-0.0761299,0.17587,-0.0381,-0.14069,-0.05862,0.14949,0.16121,0.01466,0.37225,0.31949,0.32242,-0.37225,0.01466,-0.41329,-0.01172,-13.55,-38.61,-21.17,-176.92,2.76635,-2.19908,8.28,20.44,0.37,-92.38,-6.12002,-1.55066,-9.45,12.82,-3.74,-4.91,-5.35,1.98,2.86,0.37,6.52,11.79,11.21,-11.94,0.81,-3.44,-0.51,0.000287255,-0.179816,-0.0505747,-0.821735,0.206319,0.057294,-0.00574332,0.204509,0.0644553,-0.702333,-0.362743,0.209295,-0.0643315,0.0362674,-0.0419622,-0.0684302,0.0275969,0.0384953,0.0292003,0.0339044,-0.0418756,0.022416,0.0187323,-0.143179,-0.00262249,-0.0160279,-0.0740591,11.305,-38.6208,13.9691,-253.222,-8.25814,-0.775759,12.0683,61.6184,85.3692,-189.406,-16.0475,5.6373,-16.2508,-2.53256,-3.85857,-3.7055,-2.3646,3.02021,2.2137,1.98916,-9.56352,1.44288,-0.319884,-12.6463,-1.15896,-1.24468,-4.36223,0.0291667,
-0.00902581,-0.0116084,-0.0257483,-0.032391,0.0461491,0.0167026,-0.00834894,0.00131559,-0.111858,-0.0433773,-0.0175654,0.0239815,-0.00593472,0.0635276,0.00722241,-0.0185943,0.0674953,-0.0130873,0.000521421,0.00894833,0.0683622,-0.00360727,0.0146704,0.0706956,0.0165713,0.0021137,-0.0194579,-0.266455,-0.466318,-1.90523,0,4.65566,0.838658,-0.399682,-0.279773,-6.48841,-1.07676,-1.2653,1.45081,-0.0761299,0.17587,-0.0381,-0.14069,-0.05862,0.14949,0.16121,0.01466,0.37225,0.31949,0.32242,-0.37225,0.01466,-0.41329,-0.01172,-13.55,-38.61,-21.17,-176.92,2.76635,-2.19908,8.28,20.44,0.37,-92.38,-6.12002,-1.55066,-9.45,12.82,-3.74,-4.91,-5.35,1.98,2.86,0.37,6.52,11.79,11.21,-11.94,0.81,-3.44,-0.51,0.000849276,-0.164062,-0.0165193,-0.853317,0.0322028,0.0461154,0.0330677,0.18048,0.0516199,-0.723657,-0.381998,0.214407,-0.0379171,0.0303408,-0.0524954,-0.0602969,0.029261,0.0397302,0.0226151,0.0326672,-0.0623862,0.0121997,0.0186118,-0.154054,0.00256669,-0.0212108,-0.0863064,11.5468,-34.2285,18.9034,-263.353,-18.8165,-1.45363,28.7664,54.9187,83.5095,-196.246,-17.2151,5.94725,-7.7982,-3.00668,-4.70123,-3.05483,-2.26475,3.0943,1.68689,1.89018,-11.2044,0.625579,-0.329526,-13.2989,-0.847605,-1.65932,-5.34201,0.0333333,
-0.00902581,-0.0116084,-0.0257483,-0.032391,0.0461491,0.0167026,-0.00834894,0.00131559,-0.111858,-0.0433773,-0.0175654,0.0239815,-0.00593472,0.0635276,0.00722241,-0.0185943,0.0674953,-0.0130873,0.000521421,0.00894833,0.0683622,-0.00360727,0.0146704,0.0706956,0.0165713,0.0021137,-0.0194579,-0.266455,-0.466318,-1.90523,0,4.65566,0.838658,-0.399682,-0.279773,-6.48841,-1.07676,-1.2653,1.45081,-0.0761299,0.17587,-0.0381,-0.14069,-0.05862,0.14949,0.16121,0.01466,0.37225,0.31949,0.32242,-0.37225,0.01466,-0.41329,-0.01172,-13.55,-38.61,-21.17,-176.92,2.76635,-2.19908,8.28,20.44,0.37,-92.38,-6.12002,-1.55066,-9.45,12.82,-3.74,-4.91,-5.35,1.98,2.86,0.37,6.52,11.79,11.21,-11.94,0.81,-3.44,-0.51,0.000849276,-0.164062,-0.0165193,-0.853317,0.0322028,0.0461154,0.0330677,0.18048,0.0516199,-0.723657,-0.381998,0.214407,-0.0379171,0.0303408,-0.0524954,-0.0602969,0.029261,0.0397302,0.0226151,0.0326672,-0.0623862,0.0121997,0.0186118,-0.154054,0.00256669,-0.0212108,-0.0863064,11.5468,-34.2285,18.9034,-263.353,-18.8165,-1.45363,28.7664,54.9187,83.5095,-196.246,-17.2151,5.94725,-7.7982,-3.00668,-4.70123,-3.05483,-2.26475,3.0943,1.68689,1.89018,-11.2044,0.625579,-0.329526,-13.2989,-0.847605,-1.65932,-5.34201,0.0333333,
-0.00902581,-0.0116084,-0.0257483,-0.032391,0.0461491,0.0167026,-0.00834894,0.00131559,-0.111858,-0.0433773,-0.0175654,0.0239815,-0.00593472,0.0635276,0.00722241,-0.0185943,0.0674953,-0.0130873,0.000521421,0.00894833,0.0683622,-0.00360727,0.0146704,0.0706956,0.0165713,0.0021137,-0.0194579,-0.266455,-0.466318,-1.90523,0,4.65566,0.838658,-0.399682,-0.279773,-6.48841,-1.07676,-1.2653,1.45081,-0.0761299,0.17587,-0.0381,-0.14069,-0.05862,0.14949,0.16121,0.01466,0.37225,0.31949,0.32242,-0.37225,0.01466,-0.41329,-0.01172,-13.55,-38.61,-21.17,-176.92,2.76635,-2.19908,8.28,20.44,0.37,-92.38,-6.12002,-1.55066,-9.45,12.82,-3.74,-4.91,-5.35,1.98,2.86,0.37,6.52,11.79,11.21,-11.94,0.81,-3.44,-0.51,0.000849276,-0.164062,-0.0165193,-0.853317,0.0322028,0.0461154,0.0330677,0.18048,0.0516199,-0.723657,-0.381998,0.214407,-0.0379171,0.0303408,-0.0524954,-0.0602969,0.029261,0.0397302,0.0226151,0.0326672,-0.0623862,0.0121997,0.0186118,-0.154054,0.00256669,-0.0212108,-0.0863064,11.5468,-34.2285,18.9034,-263.353,-18.8165,-1.45363,28.7664,54.9187,83.5095,-196.246,-17.2151,5.94725,-7.7982,-3.00668,-4.70123,-3.05483,-2.26475,3.0943,1.68689,1.89018,-11.2044,0.625579,-0.329526,-13.2989,-0.847605,-1.65932,-5.34201,0.0333333,
-0.00902581,-0.0116084,-0.0257483,-0.032391,0.0461491,0.0167026,-0.00834894,0.00131559,-0.111858,-0.0433773,-0.0175654,0.0239815,-0.00593472,0.0635276,0.00722241,-0.0185943,0.0674953,-0.0130873,0.000521421,0.00894833,0.0683622,-0.00360727,0.0146704,0.0706956,0.0165713,0.0021137,-0.0194579,-0.266455,-0.466318,-1.90523,0,4.65566,0.838658,-0.399682,-0.279773,-6.48841,-1.07676,-1.2653,1.45081,-0.0761299,0.17587,-0.0381,-0.14069,-0.05862,0.14949,0.16121,0.01466,0.37225,0.31949,0.32242,-0.37225,0.01466,-0.41329,-0.01172,-13.55,-38.61,-21.17,-176.92,2.76635,-2.19908,8.28,20.44,0.37,-92.38,-6.12002,-1.55066,-9.45,12.82,-3.74,-4.91,-5.35,1.98,2.86,0.37,6.52,11.79,11.21,-11.94,0.81,-3.44,-0.51,0.000849276,-0.164062,-0.0165193,-0.853317,0.0322028,0.0461154,0.0330677,0.18048,0.0516199,-0.723657,-0.381998,0.214407,-0.0379171,0.0303408,-0.0524954,-0.0602969,0.029261,0.0397302,0.0226151,0.0326672,-0.0623862,0.0121997,0.0186118,-0.154054,0.00256669,-0.0212108,-0.0863064,11.5468,-34.2285,18.9034,-263.353,-18.8165,-1.45363,28.7664,54.9187,83.5095,-196.246,-17.2151,5.94725,-7.7982,-3.00668,-4.70123,-3.05483,-2.26475,3.0943,1.68689,1.89018,-11.2044,0.625579,-0.329526,-13.2989,-0.847605,-1.65932,-5.34201,0.0333333,
-0.00902581,-0.0116084,-0.0257483,-0.032391,0.0461491,0.0167026,-0.00834894,0.00131559,-0.111858,-0.0433773,-0.0175654,0.0239815,-0.00593472,0.0635276,0.00722241,-0.0185943,0.0674953,-0.0130873,0.000521421,0.00894833,0.0683622,-0.00360727,0.0146704,0.0706956,0.0165713,0.0021137,-0.0194579,-0.266455,-0.466318,-1.90523,0,4.65566,0.838658,-0.399682,-0.279773,-6.48841,-1.07676,-1.2653,1.45081,-0.0761299,0.17587,-0.0381,-0.14069,-0.05862,0.14949,0.16121,0.01466,0.37225,0.31949,0.32242,-0.37225,0.01466,-0.41329,-0.01172,-13.55,-38.61,-21.17,-176.92,2.76635,-2.19908,8.28,20.44,0.37,-92.38,-6.12002,-1.55066,-9.45,12.82,-3.74,-4.91,-5.35,1.98,2.86,0.37,6.52,11.79,11.21,-11.94,0.81,-3.44,-0.51,0.000849276,-0.164062,-0.0165193,-0.853317,0.0322028,0.0461154,0.0330677,0.18048,0.0516199,-0.723657,-0.381998,0.214407,-0.0379171,0.0303408,-0.0524954,-0.0602969,0.029261,0.0397302,0.0226151,0.0326672,-0.0623862,0.0121997,0.0186118,-0.154054,0.00256669,-0.0212108,-0.0863064,11.5468,-34.2285,18.9034,-263.353,-18.8165,-1.45363,28.7664,54.9187,83.5095,-196.246,-17.2151,5.94725,-7.7982,-3.00668,-4.70123,-3.05483,-2.26475,3.0943,1.68689,1.89018,-11.2044,0.625579,-0.329526,-13.2989,-0.847605,-1.65932,-5.34201,0.0333333,
-0.00902581,-0.0116084,-0.0257483,-0.032391,0.0461491,0.0167026,-0.00834894,0.00131559,-0.111858,-0.0433773,-0.0175654,0.0239815,-0.00593472,0.0635276,0.00722241,-0.0185943,0.0674953,-0.0130873,0.000521421,0.00894833,0.0683622,-0.00360727,0.0146704,0.0706956,0.0165713,0.0021137,-0.0194579,-0.266455,-0.466318,-1.90523,0,4.65566,0.838658,-0.399682,-0.279773,-6.48841,-1.07676,-1.2653,1.45081,-0.0761299,0.17587,-0.0381,-0.14069,-0.05862,0.14949,0.16121,0.01466,0.37225,0.31949,0.32242,-0.37225,0.01466,-0.41329,-0.01172,-13.55,-38.61,-21.17,-176.92,2.76635,-2.19908,8.28,20.44,0.37,-92.38,-6.12002,-1.55066,-9.45,12.82,-3.74,-4.91,-5.35,1.98,2.86,0.37,6.52,11.79,11.21,-11.94,0.81,-3.44,-0.51,0.000849276,-0.164062,-0.0165193,-0.853317,0.0322028,0.0461154,0.0330677,0.18048,0.0516199,-0.723657,-0.381998,0.214407,-0.0379171,0.0303408,-0.0524954,-0.0602969,0.029261,0.0397302,0.0226151,0.0326672,-0.0623862,0.0121997,0.0186118,-0.154054,0.00256669,-0.0212108,-0.0863064,11.5468,-34.2285,18.9034,-263.353,-18.8165,-1.45363,28.7664,54.9187,83.5095,-196.246,-17.2151,5.94725,-7.7982,-3.00668,-4.70123,-3.05483,-2.26475,3.0943,1.68689,1.89018,-11.2044,0.625579,-0.329526,-13.2989,-0.847605,-1.65932,-5.34201,0.0333333,
-0.00902581,-0.0116084,-0.0257483,-0.032391,0.0461491,0.0167026,-0.00834894,0.00131559,-0.111858,-0.0433773,-0.0175654,0.0239815,-0.00593472,0.0635276,0.00722241,-0.0185943,0.0674953,-0.0130873,0.000521421,0.00894833,0.0683622,-0.00360727,0.0146704,0.0706956,0.0165713,0.0021137,-0.0194579,-0.266455,-0.466318,-1.90523,0,4.65566,0.838658,-0.399682,-0.279773,-6.48841,-1.07676,-1.2653,1.45081,-0.0761299,0.17587,-0.0381,-0.14069,-0.05862,0.14949,0.16121,0.01466,0.37225,0.31949,0.32242,-0.37225,0.01466,-0.41329,-0.01172,-13.55,-38.61,-21.17,-176.92,2.76635,-2.19908,8.28,20.44,0.37,-92.38,-6.12002,-1.55066,-9.45,12.82,-3.74,-4.91,-5.35,1.98,2.86,0.37,6.52,11.79,11.21,-11.94,0.81,-3.44,-0.51,0.000849276,-0.164062,-0.0165193,-0.853317,0.0322028,0.0461154,0.0330677,0.18048,0.0516199,-0.723657,-0.381998,0.214407,-0.0379171,0.0303408,-0.0524954,-0.0602969,0.029261,0.0397302,0.0226151,0.0326672,-0.0623862,0.0121997,0.0186118,-0.154054,0.00256669,-0.0212108,-0.0863064,11.5468,-34.2285,18.9034,-263.353,-18.8165,-1.45363,28.7664,54.9187,83.5095,-196.246,-17.2151,5.94725,-7.7982,-3.00668,-4.70123,-3.05483,-2.26475,3.0943,1.68689,1.89018,-11.2044,0.625579,-0.329526,-13.2989,-0.847605,-1.65932,-5.34201,0.0333333,
-0.00902581,-0.0116084,-0.0257483,-0.032391,0.0461491,0.0167026,-0.00834894,0.00131559,-0.111858,-0.0433773,-0.0175654,0.0239815,-0.00593472,0.0635276,0.00722241,-0.0185943,0.0674953,-0.0130873,0.000521421,0.00894833,0.0683622,-0.00360727,0.0146704,0.0706956,0.0165713,0.0021137,-0.0194579,-0.266455,-0.466318,-1.90523,0,4.65566,0.838658,-0.399682,-0.279773,-6.48841,-1.07676,-1.2653,1.45081,-0.0761299,0.17587,-0.0381,-0.14069,-0.05862,0.14949,0.16121,0.01466,0.37225,0.31949,0.32242,-0.37225,0.01466,-0.41329,-0.01172,-13.55,-38.61,-21.17,-176.92,2.76635,-2.19908,8.28,20.44,0.37,-92.38,-6.12002,-1.55066,-9.45,12.82,-3.74,-4.91,-5.35,1.98,2.86,0.37,6.52,11.79,11.21,-11.94,0.81,-3.44,-0.51,0.000849276,-0.164062,-0.0165193,-0.853317,0.0322028,0.0461154,0.0330677,0.18048,0.0516199,-0.723657,-0.381998,0.214407,-0.0379171,0.0303408,-0.0524954,-0.0602969,0.029261,0.0397302,0.0226151,0.0326672,-0.0623862,0.0121997,0.0186118,-0.154054,0.00256669,-0.0212108,-0.0863064,11.5468,-34.2285,18.9034,-263.353,-18.8165,-1.45363,28.7664,54.9187,83.5095,-196.246,-17.2151,5.94725,-7.7982,-3.00668,-4.70123,-3.05483,-2.26475,3.0943,1.68689,1.89018,-11.2044,0.625579,-0.329526,-13.2989,-0.847605,-1.65932,-5.34201,0.0333333,
-0.00902581,-0.0116084,-0.0257483,-0.032391,0.0461491,0.0167026,-0.00834894,0.00131559,-0.111858,-0.0433773,-0.0175654,0.0239815,-0.00593472,0.0635276,0.00722241,-0.0185943,0.0674953,-0.0130873,0.000521421,0.00894833,0.0683622,-0.00360727,0.0146704,0.0706956,0.0165713,0.0021137,-0.0194579,-0.266455,-0.466318,-1.90523,0,4.65566,0.838658,-0.399682,-0.279773,-6.48841,-1.07676,-1.2653,1.45081,-0.0761299,0.17587,-0.0381,-0.14069,-0.05862,0.14949,0.16121,0.01466,0.37225,0.31949,0.32242,-0.37225,0.01466,-0.41329,-0.01172,-13.55,-38.61,-21.17,-176.92,2.76635,-2.19908,8.28,20.44,0.37,-92.38,-6.12002,-1.55066,-9.45,12.82,-3.74,-4.91,-5.35,1.98,2.86,0.37,6.52,11.79,11.21,-11.94,0.81,-3.44,-0.51,0.000849276,-0.164062,-0.0165193,-0.853317,0.0322028,0.0461154,0.0330677,0.18048,0.0516199,-0.723657,-0.381998,0.214407,-0.0379171,0.0303408,-0.0524954,-0.0602969,0.029261,0.0397302,0.0226151,0.0326672,-0.0623862,0.0121997,0.0186118,-0.154054,0.00256669,-0.0212108,-0.0863064,11.5468,-34.2285,18.9034,-263.353,-18.8165,-1.45363,28.7664,54.9187,83.5095,-196.246,-17.2151,5.94725,-7.7982,-3.00668,-4.70123,-3.05483,-2.26475,3.0943,1.68689,1.89018,-11.2044,0.625579,-0.329526,-13.2989,-0.847605,-1.65932,-5.34201,0.0333333,
-0.00902581,-0.0116084,-0.0257483,-0.032391,0.0461491,0.0167026,-0.00834894,0.00131559,-0.111858,-0.0433773,-0.0175654,0.0239815,-0.00593472,0.0635276,0.00722241,-0.0185943,0.0674953,-0.0130873,0.000521421,0.00894833,0.0683622,-0.00360727,0.0146704,0.0706956,0.0165713,0.0021137,-0.0194579,-0.266455,-0.466318,-1.90523,0,4.65566,0.838658,-0.399682,-0.279773,-6.48841,-1.07676,-1.2653,1.45081,-0.0761299,0.17587,-0.0381,-0.14069,-0.05862,0.14949,0.16121,0.01466,0.37225,0.31949,0.32242,-0.37225,0.01466,-0.41329,-0.01172,-13.55,-38.61,-21.17,-176.92,2.76635,-2.19908,8.28,20.44,0.37,-92.38,-6.12002,-1.55066,-9.45,12.82,-3.74,-4.91,-5.35,1.98,2.86,0.37,6.52,11.79,11.21,-11.94,0.81,-3.44,-0.51,-0.0105014,-0.135089,0.00581938,-0.845863,-0.180753,-0.00135621,0.0702099,0.158491,0.0647598,-0.761946,-0.311763,0.192952,-0.0306201,0.0328067,-0.0541695,-0.059545,0.0434332,0.0370238,0.0170361,0.0333254,-0.0566477,0.00834605,0.0222364,-0.143645,0.0048191,-0.0210859,-0.098022,6.66334,-26.1506,22.14,-260.962,-31.7302,-4.33231,44.7464,48.788,85.4133,-208.529,-12.9561,4.64627,-5.46316,-2.80941,-4.83515,-2.99468,-1.41442,2.93192,1.24057,1.94284,-10.7453,0.317286,-0.0395579,-12.6743,-0.712461,-1.64932,-6.27926,0.0375,
-0.00902581,-0.0116084,-0.0257483,-0.032391,0.0461491,0.0167026,-0.00834894,0.00131559,-0.111858,-0.0433773,-0.0175654,0.0239815,-0.00593472,0.0635276,0.00722241,-0.0185943,0.0674953,-0.0130873,0.000521421,0.00894833,0.0683622,-0.00360727,0.0146704,0.0706956,0.0165713,0.0021137,-0.0194579,-0.266455,-0.466318,-1.90523,0,4.65566,0.838658,-0.399682,-0.279773,-6.48841,-1.07676,-1.2653,1.45081,-0.0761299,0.17587,-0.0381,-0.14069,-0.05862,0.14949,0.16121,0.01466,0.37225,0.31949,0.32242,-0.37225,0.01466,-0.41329,-0.01172,-13.55,-38.61,-21.17,-176.92,2.76635,-2.19908,8.28,20.44,0.37,-92.38,-6.12002,-1.55066,-9.45,12.82,-3.74,-4.91,-5.35,1.98,2.86,0.37,6.52,11.79,11.21,-11.94,0.81,-3.44,-0.51,-0.0105014,-0.135089,0.00581938,-0.845863,-0.180753,-0.00135621,0.0702099,0.158491,0.0647598,-0.761946,-0.311763,0.192952,-0.0306201,0.0328067,-0.0541695,-0.059545,0.0434332,0.0370238,0.0170361,0.0333254,-0.0566477,0.00834605,0.0222364,-0.143645,0.0048191,-0.0210859,-0.098022,6.66334,-26.1506,22.14,-260.962,-31.7302,-4.33231,44.7464,48.788,85.4133,-208.529,-12.9561,4.64627,-5.46316,-2.80941,-4.83515,-2.99468,-1.41442,2.93192,1.24057,1.94284,-10.7453,0.317286,-0.0395579,-12.6743,-0.712461,-1.64932,-6.27926,0.0375,
-0.00902581,-0.0116084,-0.0257483,-0.032391,0.0461491,0.0167026,-0.00834894,0.00131559,-0.111858,-0.0433773,-0.0175654,0.0239815,-0.00593472,0.0635276,0.00722241,-0.0185943,0.0674953,-0.0130873,0.000521421,0.00894833,0.0683622,-0.00360727,0.0146704,0.0706956,0.0165713,0.0021137,-0.0194579,-0.266455,-0.466318,-1.90523,0,4.65566,0.838658,-0.399682,-0.279773,-6.48841,-1.07676,-1.2653,1.45081,-0.0761299,0.17587,-0.0381,-0.14069,-0.05862,0.14949,0.16121,0.01466,0.37225,0.31949,0.32242,-0.37225,0.01466,-0.41329,-0.01172,-13.55,-38.61,-21.17,-176.92,2.76635,-2.19908,8.28,20.44,0.37,-92.38,-6.12002,-1.55066,-9.45,12.82,-3.74,-4.91,-5.35,1.98,2.86,0.37,6.52,11.79,11.21,-11.94,0.81,-3.44,-0.51,-0.0105014,-0.135089,0.00581938,-0.845863,-0.180753,-0.00135621,0.0702099,0.158491,0.0647598,-0.761946,-0.311763,0.192952,-0.0306201,0.0328067,-0.0541695,-0.059545,0.0434332,0.0370238,0.0170361,0.0333254,-0.0566477,0.00834605,0.0222364,-0.143645,0.0048191,-0.0210859,-0.098022,6.66334,-26.1506,22.14,-260.962,-31.7302,-4.33231,44.7464,48.788,85.4133,-208.529,-12.9561,4.64627,-5.46316,-2.80941,-4.83515,-2.99468,-1.41442,2.93192,1.24057,1.94284,-10.7453,0.317286,-0.0395579,-12.6743,-0.712461,-1.64932,-6.27926,0.0375,
-0.00902581,-0.0116084,-0.0257483,-0.032391,0.0461491,0.0167026,-0.00834894,0.00131559,-0.111858,-0.0433773,-0.0175654,0.0239815,-0.00593472,0.0635276,0.00722241,-0.0185943,0.0674953,-0.0130873,0.000521421,0.00894833,0.0683622,-0.00360727,0.0146704,0.0706956,0.0165713,0.0021137,-0.0194579,-0.266455,-0.466318,-1.90523,0,4.65566,0.838658,-0.399682,-0.279773,-6.48841,-1.07676,-1.2653,1.45081,-0.0761299,0.17587,-0.0381,-0.14069,-0.05862,0.14949,0.16121,0.01466,0.37225,0.31949,0.32242,-0.37225,0.01466,-0.41329,-0.01172,-13.55,-38.61,-21.17,-176.92,2.76635,-2.19908,8.28,20.44,0.37,-92.38,-6.12002,-1.55066,-9.45,12.82,-3.74,-4.91,-5.35,1.98,2.86,0.37,6.52,11.79,11.21,-11.94,0.81,-3.44,-0.51,-0.0105014,-0.135089,0.00581938,-0.845863,-0.180753,-0.00135621,0.0702099,0.158491,0.0647598,-0.761946,-0.311763,0.192952,-0.0306201,0.0328067,-0.0541695,-0.059545,0.0434332,0.0370238,0.0170361,0.0333254,-0.0566477,0.00834605,0.0222364,-0.143645,0.0048191,-0.0210859,-0.098022,6.66334,-26.1506,22.14,-260.962,-31.7302,-4.33231,44.7464,48.788,85.4133,-208.529,-12.9561,4.64627,-5.46316,-2.80941,-4.83515,-2.99468,-1.41442,2.93192,1.24057,1.94284,-10.7453,0.317286,-0.0395579,-12.6743,-0.712461,-1.64932,-6.27926,0.0375,
-0.00902581,-0.0116084,-0.0257483,-0.032391,0.0461491,0.0167026,-0.00834894,0.00131559,-0.111858,-0.0433773,-0.0175654,0.0239815,-0.00593472,0.0635276,0.00722241,-0.0185943,0.0674953,-0.0130873,0.000521421,0.00894833,0.0683622,-0.00360727,0.0146704,0.0706956,0.0165713,0.0021137,-0.0194579,-0.266455,-0.466318,-1.90523,0,4.65566,0.838658,-0.399682,-0.279773,-6.48841,-1.07676,-1.2653,1.45081,-0.0761299,0.17587,-0.0381,-0.14069,-0.05862,0.14949,0.16121,0.01466,0.37225,0.31949,0.32242,-0.37225,0.01466,-0.41329,-0.01172,-13.55,-38.61,-21.17,-176.92,2.76635,-2.19908,8.28,20.44,0.37,-92.38,-6.12002,-1.55066,-9.45,12.82,-3.74,-4.91,-5.35,1.98,2.86,0.37,6.52,11.79,11.21,-11.94,0.81,-3.44,-0.51,-0.0105014,-0.135089,0.00581938,-0.845863,-0.180753,-0.00135621,0.0702099,0.158491,0.0647598,-0.761946,-0.311763,0.192952,-0.0306201,0.0328067,-0.0541695,-0.059545,0.0434332,0.0370238,0.0170361,0.0333254,-0.0566477,0.00834605,0.0222364,-0.143645,0.0048191,-0.0210859,-0.098022,6.66334,-26.1506,22.14,-260.962,-31.7302,-4.33231,44.7464,48.788,85.4133,-208.529,-12.9561,4.64627,-5.46316,-2.80941,-4.83515,-2.99468,-1.41442,2.93192,1.24057,1.94284,-10.7453,0.317286,-0.0395579,-12.6743,-0.712461,-1.64932,-6.27926,0.0375,
-0.00902581,-0.0116084,-0.0257483,-0.032391,0.0461491,0.0167026,-0.00834894,0.00131559,-0.111858,-0.0433773,-0.0175654,0.0239815,-0.00593472,0.0635276,0.00722241,-0.0185943,0.0674953,-0.0130873,0.000521421,0.00894833,0.0683622,-0.00360727,0.0146704,0.0706956,0.0165713,0.0021137,-0.0194579,-0.266455,-0.466318,-1.90523,0,4.65566,0.838658,-0.399682,-0.279773,-6.48841,-1.07676,-1.2653,1.45081,-0.0761299,0.17587,-0.0381,-0.14069,-0.05862,0.14949,0.16121,0.01466,0.37225,0.31949,0.32242,-0.37225,0.01466,-0.41329,-0.01172,-13.55,-38.61,-21.17,-176.92,2.76635,-2.19908,8.28,20.44,0.37,-92.38,-6.12002,-1.55066,-9.45,12.82,-3.74,-4.91,-5.35,1.98,2.86,0.37,6.52,11.79,11.21,-11.94,0.81,-3.44,-0.51,-0.0105014,-0.135089,0.00581938,-0.845863,-0.180753,-0.00135621,0.0702099,0.158491,0.0647598,-0.761946,-0.311763,0.192952,-0.0306201,0.0328067,-0.0541695,-0.059545,0.0434332,0.0370238,0.0170361,0.0333254,-0.0566477,0.00834605,0.0222364,-0.143645,0.0048191,-0.0210859,-0.098022,6.66334,-26.1506,22.14,-260.962,-31.7302,-4.33231,44.7464,48.788,85.4133,-208.529,-12.9561,4.64627,-5.46316,-2.80941,-4.83515,-2.99468,-1.41442,2.93192,1.24057,1.94284,-10.7453,0.317286,-0.0395579,-12.6743,-0.712461,-1.64932,-6.27926,0.0375,
-0.00902581,-0.0116084,-0.0257483,-0.032391,0.0461491,0.0167026,-0.00834894,0.00131559,-0.111858,-0.0433773,-0.0175654,0.0239815,-0.00593472,0.0635276,0.00722241,-0.0185943,0.0674953,-0.0130873,0.000521421,0.00894833,0.0683622,-0.00360727,0.0146704,0.0706956,0.0165713,0.0021137,-0.0194579,-0.266455,-0.466318,-1.90523,0,4.65566,0.838658,-0.399682,-0.279773,-6.48841,-1.07676,-1.2653,1.45081,-0.0761299,0.17587,-0.0381,-0.14069,-0.05862,0.14949,0.16121,0.01466,0.37225,0.31949,0.32242,-0.37225,0.01466,-0.41329,-0.01172,-13.55,-38.61,-21.17,-176.92,2.76635,-2.19908,8.28,20.44,0.37,-92.38,-6.12002,-1.55066,-9.45,12.82,-3.74,-4.91,-5.35,1.98,2.86,0.37,6.52,11.79,11.21,-11.94,0.81,-3.44,-0.51,-0.0105014,-0.135089,0.00581938,-0.845863,-0.180753,-0.00135621,0.0702099,0.158491,0.0647598,-0.761946,-0.311763,0.192952,-0.0306201,0.0328067,-0.0541695,-0.059545,0.0434332,0.0370238,0.0170361,0.0333254,-0.0566477,0.00834605,0.0222364,-0.143645,0.0048191,-0.0210859,-0.098022,6.66334,-26.1506,22.14,-260.962,-31.7302,-4.33231,44.7464,48.788,85.4133,-208.529,-12.9561,4.64627,-5.46316,-2.80941,-4.83515,-2.99468,-1.41442,2.93192,1.24057,1.94284,-10.7453,0.317286,-0.0395579,-12.6743,-0.712461,-1.64932,-6.27926,0.0375,
-0.00902581,-0.0116084,-0.0257483,-0.032391,0.0461491,0.0167026,-0.00834894,0.00131559,-0.111858,-0.0433773,-0.0175654,0.0239815,-0.00593472,0.0635276,0.00722241,-0.0185943,0.0674953,-0.0130873,0.000521421,0.00894833,0.0683622,-0.00360727,0.0146704,0.0706956,0.0165713,0.0021137,-0.0194579,-0.266455,-0.466318,-1.90523,0,4.65566,0.838658,-0.399682,-0.279773,-6.48841,-1.07676,-1.2653,1.45081,-0.0761299,0.17587,-0.0381,-0.14069,-0.05862,0.14949,0.16121,0.01466,0.37225,0.31949,0.32242,-0.37225,0.01466,-0.41329,-0.01172,-13.55,-38.61,-21.17,-176.92,2.76635,-2.19908,8.28,20.44,0.37,-92.38,-6.12002,-1.55066,-9.45,12.82,-3.74,-4.91,-5.35,1.98,2.86,0.37,6.52,11.79,11.21,-11.94,0.81,-3.44,-0.51,-0.0105014,-0.135089,0.00581938,-0.845863,-0.180753,-0.00135621,0.0702099,0.158491,0.0647598,-0.761946,-0.311763,0.192952,-0.0306201,0.0328067,-0.0541695,-0.059545,0.0434332,0.0370238,0.0170361,0.0333254,-0.0566477,0.00834605,0.0222364,-0.143645,0.0048191,-0.0210859,-0.098022,6.66334,-26.1506,22.14,-260.962,-31.7302,-4.33231,44.7464,48.788,85.4133,-208.529,-12.9561,4.64627,-5.46316,-2.80941,-4.83515,-2.99468,-1.41442,2.93192,1.24057,1.94284,-10.7453,0.317286,-0.0395579,-12.6743,-0.712461,-1.64932,-6.27926,0.0375,
